Henry-Lau1/Cable-driven-Flexible-Manipulator/src/data/qrealdata_TaskSpaceCtrl.txt
2025/5/27 12:1:3 timeTick0 0 Desired_Joint 0 0 Plan_Joint 0.0845847 0.0838091 Gen_Joint -0.14 0.37 -0.54 -0.05 0.17 -0.43 0.93 0.35 ActCable_Force 34.28 20.02 59.7 SCorCableForce 102.55 50.36 54.9 72.39 17.83 73.72 BCorCableForce 92.75 45.47 55.85 98.99 74.46 36.9 39.83 74.55 72.88 43.27 40.32 84.21 ExForceMeasured 5.62766 -13.2444 -1.01043 0.197527 0.0948788 0.251865 ExForceSensed -0.169682 -0.15648 
2025/5/27 12:1:3 timeTick1 20 Desired_Joint 0 0 Plan_Joint 0.0847647 0.0838491 Gen_Joint -0.14 0.38 -0.56 -0.05 0.17 -0.43 0.93 0.35 ActCable_Force 34.28 20.02 59.7 SCorCableForce 102.55 50.36 54.9 72.39 17.83 73.72 BCorCableForce 92.75 45.47 55.85 98.99 74.46 36.9 39.83 74.55 72.88 43.27 40.32 84.21 ExForceMeasured 6.82445 -13.249 -0.17516 0.208119 0.0771337 0.194032 ExForceSensed -0.109612 -0.200695 
2025/5/27 12:1:3 timeTick2 40 Desired_Joint 0 0 Plan_Joint 0.0849447 0.0838891 Gen_Joint -0.14 0.38 -0.56 -0.05 0.17 -0.43 0.93 0.35 ActCable_Force 34.48 20.25 59.79 SCorCableForce 102.47 50.48 54.98 72.65 18.39 74.22 BCorCableForce 92.78 45.63 56.06 98.81 74.39 36.99 40.09 74.84 72.43 42.98 40.14 84.64 ExForceMeasured 9.02643 -11.1636 -0.176092 0.192526 0.0674857 0.249279 ExForceSensed -0.109612 -0.200695 
2025/5/27 12:1:3 timeTick3 60 Desired_Joint 0 0 Plan_Joint 0.0851247 0.0839291 Gen_Joint -0.14 0.38 -0.56 -0.05 0.17 -0.43 0.93 0.35 ActCable_Force 34.48 20.25 59.79 SCorCableForce 102.47 50.48 54.98 72.65 18.39 74.22 BCorCableForce 92.78 45.63 56.06 98.81 74.39 36.99 40.09 74.84 72.43 42.98 40.14 84.64 ExForceMeasured 6.22229 -14.2944 0.24233 0.213506 0.0680098 0.222663 ExForceSensed -0.0816412 -0.190719 
2025/5/27 12:1:3 timeTick4 80 Desired_Joint 0 0 Plan_Joint 0.0853047 0.0839691 Gen_Joint -0.14 0.38 -0.56 -0.05 0.17 -0.43 0.93 0.35 ActCable_Force 34.41 20.14 59.67 SCorCableForce 102.56 50.76 55.07 72.74 17.98 73.74 BCorCableForce 92.72 45.92 56.12 99.02 74.82 37.8 40 75.18 72.66 43.2 40.94 84.03 ExForceMeasured 7.43801 -14.2792 0.218284 0.2133 0.086414 0.165264 ExForceSensed -0.0641366 -0.171734 
2025/5/27 12:1:3 timeTick5 100 Desired_Joint 0 0 Plan_Joint 0.0854847 0.0840091 Gen_Joint -0.14 0.38 -0.56 -0.05 0.17 -0.43 0.93 0.35 ActCable_Force 34.41 20.14 59.67 SCorCableForce 102.56 50.76 55.07 72.74 17.98 73.74 BCorCableForce 92.72 45.92 56.12 99.02 74.82 37.8 40 75.18 72.66 43.2 40.94 84.03 ExForceMeasured 7.86291 -13.2705 0.246169 0.228757 0.094719 0.306557 ExForceSensed -0.0475019 -0.182809 
2025/5/27 12:1:3 timeTick6 120 Desired_Joint 0 0 Plan_Joint 0.0856247 0.0840491 Gen_Joint -0.13 0.39 -0.54 -0.05 0.17 -0.42 0.95 0.35 ActCable_Force 34.71 20.41 59.99 SCorCableForce 102.7 50.82 54.92 72.3 18.23 74.04 BCorCableForce 92.68 45.54 55.4 98.76 74.67 37.18 41.34 74.28 73.22 43.75 41.48 84.35 ExForceMeasured 7.92568 -13.2309 -1.39434 0.192505 0.0677883 0.222114 ExForceSensed -0.170065 -0.343134 
2025/5/27 12:1:4 timeTick7 140 Desired_Joint 0 0 Plan_Joint 0.0856247 0.0839414 Gen_Joint -0.13 0.39 -0.54 -0.05 0.17 -0.42 0.95 0.35 ActCable_Force 34.71 20.41 59.99 SCorCableForce 102.7 50.82 54.92 72.3 18.23 74.04 BCorCableForce 92.68 45.54 55.4 98.76 74.67 37.18 41.34 74.28 73.22 43.75 41.48 84.35 ExForceMeasured 5.0492 -16.3678 -1.79632 0.218356 0.0950426 0.280865 ExForceSensed -0.170065 -0.343134 
2025/5/27 12:1:4 timeTick8 160 Desired_Joint 0 0 Plan_Joint 0.0856247 0.0838337 Gen_Joint -0.13 0.39 -0.54 -0.05 0.17 -0.42 0.95 0.35 ActCable_Force 34.71 20.41 59.99 SCorCableForce 102.7 50.82 54.92 72.3 18.23 74.04 BCorCableForce 92.68 45.54 55.4 98.76 74.67 37.18 41.34 74.28 73.22 43.75 41.48 84.35 ExForceMeasured 5.21526 -18.3897 -0.637149 0.187599 0.0777323 0.11073 ExForceSensed -0.273663 -0.325626 
2025/5/27 12:1:4 timeTick9 180 Desired_Joint 0 0 Plan_Joint 0.0856247 0.083726 Gen_Joint -0.13 0.39 -0.54 -0.05 0.17 -0.42 0.95 0.35 ActCable_Force 35.32 19.8 61.1 SCorCableForce 103.74 49.6 54.76 72.21 18.03 75.44 BCorCableForce 93.02 45.24 54.2 99.54 75.66 36.77 39.82 75.15 73 43 40.32 85.14 ExForceMeasured 5.01763 -14.3053 0.246868 0.213543 0.0677137 0.280125 ExForceSensed -0.308014 -0.307715 
2025/5/27 12:1:4 timeTick10 200 Desired_Joint 0 0 Plan_Joint 0.0856247 0.0836183 Gen_Joint -0.13 0.39 -0.54 -0.05 0.17 -0.42 0.95 0.35 ActCable_Force 35.32 19.8 61.1 SCorCableForce 103.74 49.6 54.76 72.21 18.03 75.44 BCorCableForce 93.02 45.24 54.2 99.54 75.66 36.77 39.82 75.15 73 43 40.32 85.14 ExForceMeasured 5.65543 -15.3007 0.148538 0.197434 0.131163 0.251848 ExForceSensed -0.283254 -0.296504 
2025/5/27 12:1:4 timeTick11 220 Desired_Joint 0 0 Plan_Joint 0.0855047 0.0835783 Gen_Joint -0.13 0.39 -0.54 -0.05 0.17 -0.41 0.94 0.35 ActCable_Force 34.48 19.55 60.58 SCorCableForce 103.88 49.54 54.89 72.45 17.74 75.03 BCorCableForce 93.4 45.56 55.65 99.51 75.81 36.75 39.61 75.24 73.09 43.11 40.17 84.73 ExForceMeasured 2.71398 -12.2538 -0.56721 0.218322 0.0947365 0.310018 ExForceSensed -0.274994 -0.312086 
2025/5/27 12:1:4 timeTick12 240 Desired_Joint 0 0 Plan_Joint 0.0852447 0.0836182 Gen_Joint -0.14 0.4 -0.53 -0.05 0.17 -0.41 0.94 0.35 ActCable_Force 34.48 19.55 60.58 SCorCableForce 103.88 49.54 54.89 72.45 17.74 75.03 BCorCableForce 93.4 45.56 55.65 99.51 75.81 36.75 39.61 75.24 73.09 43.11 40.17 84.73 ExForceMeasured 7.93023 -13.2349 0.213414 0.197787 0.0768538 0.221677 ExForceSensed -0.264296 -0.332648 
2025/5/27 12:1:4 timeTick13 260 Desired_Joint 0 0 Plan_Joint 0.0849847 0.0836582 Gen_Joint -0.14 0.37 -0.55 -0.04 0.17 -0.44 0.93 0.35 ActCable_Force 34.48 19.93 60.53 SCorCableForce 103.62 50.06 54.68 72.19 17.51 74.74 BCorCableForce 92.95 45.3 55.38 99.45 75.45 36.8 39.8 74.94 73.02 43.13 40.19 84.41 ExForceMeasured 6.2358 -16.3439 0.600504 0.20312 0.0861187 0.222892 ExForceSensed -0.288891 -0.441188 
2025/5/27 12:1:4 timeTick14 280 Desired_Joint 0 0 Plan_Joint 0.0852247 0.0836382 Gen_Joint -0.14 0.37 -0.55 -0.04 0.17 -0.44 0.93 0.35 ActCable_Force 34.48 19.93 60.53 SCorCableForce 103.62 50.06 54.68 72.19 17.51 74.74 BCorCableForce 92.95 45.3 55.38 99.45 75.45 36.8 39.8 74.94 73.02 43.13 40.19 84.41 ExForceMeasured 6.22942 -16.3215 -1.0401 0.182199 0.085985 0.223508 ExForceSensed -0.288891 -0.441188 
2025/5/27 12:1:4 timeTick15 300 Desired_Joint 0 0 Plan_Joint 0.0854647 0.0836182 Gen_Joint -0.14 0.37 -0.55 -0.04 0.17 -0.44 0.93 0.35 ActCable_Force 34.48 19.93 60.53 SCorCableForce 103.62 50.06 54.68 72.19 17.51 74.74 BCorCableForce 92.95 45.3 55.38 99.45 75.45 36.8 39.8 74.94 73.02 43.13 40.19 84.41 ExForceMeasured 3.3935 -13.2556 -0.99397 0.197711 0.0771529 0.196499 ExForceSensed 0.0264216 -0.362097 
2025/5/27 12:1:4 timeTick16 320 Desired_Joint 0 0 Plan_Joint 0.0857047 0.0835982 Gen_Joint -0.14 0.37 -0.55 -0.04 0.17 -0.44 0.93 0.35 ActCable_Force 34.21 21.02 61.1 SCorCableForce 100.63 51.44 55.5 72.65 19.14 72.43 BCorCableForce 93.07 45.3 53.96 99.06 73.34 37.71 40.58 74.18 73.22 43.36 40.46 84.57 ExForceMeasured 3.89827 -10.1454 -1.81593 0.186932 0.0947206 0.252995 ExForceSensed 0.0216431 -0.347731 
2025/5/27 12:1:4 timeTick17 340 Desired_Joint 0 0 Plan_Joint 0.0859846 0.0835782 Gen_Joint -0.14 0.37 -0.55 -0.04 0.17 -0.44 0.91 0.35 ActCable_Force 34.21 21.02 61.1 SCorCableForce 100.63 51.44 55.5 72.65 19.14 72.43 BCorCableForce 93.07 45.3 53.96 99.06 73.34 37.71 40.58 74.18 73.22 43.36 40.46 84.57 ExForceMeasured 2.89158 -14.297 -0.182144 0.208215 0.0776036 0.139895 ExForceSensed 0.0149527 -0.339959 
2025/5/27 12:1:4 timeTick18 360 Desired_Joint 0 0 Plan_Joint 0.0862646 0.0835582 Gen_Joint -0.14 0.37 -0.55 -0.04 0.17 -0.44 0.91 0.35 ActCable_Force 34.03 20.34 60.72 SCorCableForce 100.78 52.12 55.56 72.79 19.14 72.16 BCorCableForce 92.95 45.2 55.22 99.29 73.45 38.05 41.09 74.11 72.79 42.88 39.76 84.48 ExForceMeasured 3.81976 -12.2397 -0.178637 0.20799 0.0944567 0.337663 ExForceSensed 0.0430405 -0.31921 
2025/5/27 12:1:4 timeTick19 380 Desired_Joint 0 0 Plan_Joint 0.0865446 0.0835382 Gen_Joint -0.14 0.37 -0.55 -0.04 0.17 -0.44 0.91 0.35 ActCable_Force 34.03 20.34 60.72 SCorCableForce 100.78 52.12 55.56 72.79 19.14 72.16 BCorCableForce 92.95 45.2 55.22 99.29 73.45 38.05 41.09 74.11 72.79 42.88 39.76 84.48 ExForceMeasured 8.53103 -12.1967 -0.991524 0.197578 0.076979 0.193175 ExForceSensed 0.0685507 -0.302656 
2025/5/27 12:1:4 timeTick20 400 Desired_Joint 0 0 Plan_Joint 0.0868246 0.0835182 Gen_Joint -0.14 0.37 -0.54 -0.05 0.18 -0.44 0.92 0.35 ActCable_Force 34.68 20.41 60.87 SCorCableForce 101.01 51.94 56.04 73.24 18.89 72 BCorCableForce 92.66 45.01 55.14 99.26 73.51 37.89 41.03 74.63 72.66 42.73 39.6 84.3 ExForceMeasured 6.20057 -12.2042 -1.7893 0.187331 0.0586991 0.223231 ExForceSensed 0.273214 -0.241751 
2025/5/27 12:1:4 timeTick21 420 Desired_Joint 0 0 Plan_Joint 0.0870246 0.0835182 Gen_Joint -0.14 0.37 -0.54 -0.05 0.18 -0.44 0.92 0.35 ActCable_Force 34.68 20.41 60.87 SCorCableForce 101.01 51.94 56.04 73.24 18.89 72 BCorCableForce 92.66 45.01 55.14 99.26 73.51 37.89 41.03 74.63 72.66 42.73 39.6 84.3 ExForceMeasured 6.8423 -11.1682 -0.62471 0.202361 0.122281 0.194171 ExForceSensed 0.273214 -0.241751 
2025/5/27 12:1:4 timeTick22 440 Desired_Joint 0 0 Plan_Joint 0.0871846 0.0835582 Gen_Joint -0.14 0.37 -0.54 -0.05 0.17 -0.43 0.92 0.35 ActCable_Force 34.68 20.41 60.87 SCorCableForce 101.01 51.94 56.04 73.24 18.89 72 BCorCableForce 92.66 45.01 55.14 99.26 73.51 37.89 41.03 74.63 72.66 42.73 39.6 84.3 ExForceMeasured 4.5151 -15.335 -0.968961 0.21345 0.0681195 0.224143 ExForceSensed 0.141846 -0.219554 
2025/5/27 12:1:4 timeTick23 460 Desired_Joint 0 0 Plan_Joint 0.0873446 0.0835982 Gen_Joint -0.14 0.4 -0.53 -0.05 0.17 -0.43 0.92 0.35 ActCable_Force 34.77 20 60.08 SCorCableForce 103.04 50.16 53.89 71.35 18.1 73.2 BCorCableForce 92.6 45.1 55.44 99.15 75.11 37.38 39.95 73.51 73.13 43.25 40.32 84.35 ExForceMeasured 9.66505 -14.2646 -0.198574 0.20797 0.0950524 0.220753 ExForceSensed -0.00399497 -0.266142 
2025/5/27 12:1:4 timeTick24 480 Desired_Joint 0 0 Plan_Joint 0.0872046 0.0836382 Gen_Joint -0.14 0.4 -0.53 -0.05 0.17 -0.43 0.92 0.35 ActCable_Force 34.77 20 60.08 SCorCableForce 103.04 50.16 53.89 71.35 18.1 73.2 BCorCableForce 92.6 45.1 55.44 99.15 75.11 37.38 39.95 73.51 73.13 43.25 40.32 84.35 ExForceMeasured 4.51646 -15.3278 -0.181513 0.208271 0.0771182 0.224014 ExForceSensed -0.0612921 -0.268897 
2025/5/27 12:1:4 timeTick25 500 Desired_Joint 0 0 Plan_Joint 0.0870646 0.0836782 Gen_Joint -0.14 0.4 -0.53 -0.05 0.17 -0.43 0.92 0.35 ActCable_Force 34.73 19.66 59.99 SCorCableForce 103.17 50.06 55.35 72.95 17.87 73.9 BCorCableForce 92.78 45.45 55.79 99.12 75.23 37.09 39.91 75.42 72.86 42.95 40.05 84.44 ExForceMeasured 5.60798 -15.3068 -0.593735 0.187647 0.0586635 0.251905 ExForceSensed -0.0929056 -0.255211 
2025/5/27 12:1:4 timeTick26 520 Desired_Joint 0 0 Plan_Joint 0.0869246 0.0837182 Gen_Joint -0.14 0.4 -0.53 -0.05 0.17 -0.43 0.92 0.35 ActCable_Force 34.73 19.66 59.99 SCorCableForce 103.17 50.06 55.35 72.95 17.87 73.9 BCorCableForce 92.78 45.45 55.79 99.12 75.23 37.09 39.91 75.42 72.86 42.95 40.05 84.44 ExForceMeasured 3.92217 -16.3577 -0.603833 0.203029 0.0860356 0.253016 ExForceSensed -0.109649 -0.240117 
2025/5/27 12:1:4 timeTick27 540 Desired_Joint 0 0 Plan_Joint 0.0867046 0.0837582 Gen_Joint -0.14 0.4 -0.53 -0.05 0.17 -0.42 0.94 0.35 ActCable_Force 35.16 20 60.33 SCorCableForce 103.01 49.67 53.86 71.38 17.94 74.56 BCorCableForce 92.23 45.04 53.13 99.12 75.03 36.63 39.44 74 72.91 42.95 40.57 84.66 ExForceMeasured 6.72849 -17.3488 -1.84179 0.171971 0.0675158 0.280222 ExForceSensed -0.117512 -0.218905 
2025/5/27 12:1:4 timeTick28 560 Desired_Joint 0 0 Plan_Joint 0.0864846 0.0837981 Gen_Joint -0.14 0.39 -0.53 -0.04 0.17 -0.42 0.94 0.35 ActCable_Force 35.16 20 60.33 SCorCableForce 103.01 49.67 53.86 71.38 17.94 74.56 BCorCableForce 92.23 45.04 53.13 99.12 75.03 36.63 39.44 74 72.91 42.95 40.57 84.66 ExForceMeasured 5.19095 -14.2764 0.221399 0.198014 0.0595118 0.110015 ExForceSensed -0.138539 -0.178582 
2025/5/27 12:1:4 timeTick29 580 Desired_Joint 0 0 Plan_Joint 0.0863446 0.0837781 Gen_Joint -0.14 0.39 -0.53 -0.04 0.17 -0.42 0.94 0.35 ActCable_Force 34.5 19.55 59.83 SCorCableForce 103.37 50.16 55.61 73.01 17.94 74.36 BCorCableForce 92.6 45.32 55.77 98.93 74.81 36.57 38.81 75.84 72.75 42.84 40.14 84.57 ExForceMeasured 5.01186 -14.2947 0.633919 0.203219 0.0676249 0.280119 ExForceSensed -0.155876 -0.131003 
2025/5/27 12:1:4 timeTick30 600 Desired_Joint 0 0 Plan_Joint 0.0862046 0.0837581 Gen_Joint -0.14 0.39 -0.53 -0.04 0.17 -0.42 0.94 0.35 ActCable_Force 34.5 19.55 59.83 SCorCableForce 103.37 50.16 55.61 73.01 17.94 74.36 BCorCableForce 92.6 45.32 55.77 98.93 74.81 36.57 38.81 75.84 72.75 42.84 40.14 84.57 ExForceMeasured 4.52542 -17.3732 -1.43109 0.192604 0.0861616 0.22468 ExForceSensed -0.155876 -0.131003 
2025/5/27 12:1:4 timeTick31 620 Desired_Joint 0 0 Plan_Joint 0.0860646 0.0837381 Gen_Joint -0.14 0.39 -0.53 -0.04 0.17 -0.42 0.94 0.35 ActCable_Force 34.71 20.05 60.42 SCorCableForce 103.37 50.7 55.28 72.3 17.74 74.26 BCorCableForce 92.89 45.21 55.05 99.92 75 36.45 39.73 75.38 72.66 42.75 40.39 84.44 ExForceMeasured 5.04234 -14.2961 -0.999499 0.21307 0.103952 0.280565 ExForceSensed -0.171197 -0.0983687 
2025/5/27 12:1:4 timeTick32 640 Desired_Joint 0 0 Plan_Joint 0.0859246 0.0837181 Gen_Joint -0.14 0.39 -0.53 -0.04 0.17 -0.42 0.94 0.35 ActCable_Force 34.71 20.05 60.42 SCorCableForce 103.37 50.7 55.28 72.3 17.74 74.26 BCorCableForce 92.89 45.21 55.05 99.92 75 36.45 39.73 75.38 72.66 42.75 40.39 84.44 ExForceMeasured 7.25118 -14.2824 -1.79725 0.202762 0.0853947 0.336113 ExForceSensed -0.200849 -0.0865402 
2025/5/27 12:1:4 timeTick33 660 Desired_Joint 0 0 Plan_Joint 0.0857846 0.0836981 Gen_Joint -0.14 0.39 -0.53 -0.04 0.17 -0.42 0.94 0.35 ActCable_Force 34.73 20.11 60.51 SCorCableForce 102.82 50.22 55.74 73.28 17.62 74.04 BCorCableForce 92.38 44.93 55.17 98.91 74.72 36.53 39.56 75.82 73.02 43.07 40.23 84.26 ExForceMeasured 5.62766 -13.2444 -1.01043 0.197527 0.0948788 0.251865 ExForceSensed -0.226801 -0.0914644 
2025/5/27 12:1:4 timeTick34 680 Desired_Joint 0 0 Plan_Joint 0.0857846 0.0837876 Gen_Joint -0.14 0.39 -0.54 -0.05 0.17 -0.42 0.94 0.35 ActCable_Force 34.73 20.11 60.51 SCorCableForce 102.82 50.22 55.74 73.28 17.62 74.04 BCorCableForce 92.38 44.93 55.17 98.91 74.72 36.53 39.56 75.82 73.02 43.07 40.23 84.26 ExForceMeasured 9.57303 -16.333 -0.60228 0.202961 0.0855674 0.30616 ExForceSensed -0.239543 -0.119568 
2025/5/27 12:1:4 timeTick35 700 Desired_Joint 0 0 Plan_Joint 0.0857846 0.083877 Gen_Joint -0.14 0.39 -0.54 -0.05 0.17 -0.42 0.94 0.35 ActCable_Force 34.48 20.34 60.29 SCorCableForce 102.71 50.09 55.26 72.73 17.76 73.97 BCorCableForce 92.57 45.23 55.53 98.87 74.79 36.77 39.77 75.12 72.7 42.84 39.94 84.35 ExForceMeasured 7.86142 -15.3321 1.04376 0.223855 0.0856993 0.306537 ExForceSensed -0.217978 -0.180174 
2025/5/27 12:1:4 timeTick36 720 Desired_Joint 0 0 Plan_Joint 0.0857846 0.0839664 Gen_Joint -0.14 0.39 -0.54 -0.05 0.17 -0.42 0.94 0.35 ActCable_Force 34.48 20.34 60.29 SCorCableForce 102.71 50.09 55.26 72.73 17.76 73.97 BCorCableForce 92.57 45.23 55.53 98.87 74.79 36.77 39.77 75.12 72.7 42.84 39.94 84.35 ExForceMeasured 5.09574 -14.31 0.680219 0.218996 0.0410721 0.194763 ExForceSensed -0.242139 -0.214987 
2025/5/27 12:1:5 timeTick37 740 Desired_Joint 0 0 Plan_Joint 0.0857846 0.0840559 Gen_Joint -0.14 0.39 -0.54 -0.05 0.17 -0.44 0.94 0.35 ActCable_Force 34.23 20.14 59.97 SCorCableForce 101.96 50.15 54.89 72.4 18.14 74.15 BCorCableForce 92.72 45.3 55.5 98.73 74.43 36.89 39.97 74.76 72.72 42.98 40.05 84.6 ExForceMeasured 5.02367 -14.2714 -0.625796 0.187275 0.0946868 0.280675 ExForceSensed -0.260065 -0.217665 
2025/5/27 12:1:5 timeTick38 760 Desired_Joint 0 0 Plan_Joint 0.0857846 0.0840959 Gen_Joint -0.14 0.37 -0.54 -0.04 0.17 -0.44 0.94 0.35 ActCable_Force 34.23 20.14 59.97 SCorCableForce 101.96 50.15 54.89 72.4 18.14 74.15 BCorCableForce 92.72 45.3 55.5 98.73 74.43 36.89 39.97 74.76 72.72 42.98 40.05 84.6 ExForceMeasured 9.07151 -13.2519 -0.178274 0.223406 0.104036 0.249281 ExForceSensed -0.188623 -0.21762 
2025/5/27 12:1:5 timeTick39 780 Desired_Joint 0 0 Plan_Joint 0.0859446 0.0840759 Gen_Joint -0.14 0.37 -0.54 -0.04 0.17 -0.44 0.94 0.35 ActCable_Force 34.12 20.05 59.92 SCorCableForce 101.96 50.88 53.93 71.46 17.89 73.88 BCorCableForce 93.23 45.89 55.04 98.17 74.15 37.14 40.46 73.7 72.7 42.86 40.17 84.3 ExForceMeasured 7.2615 -14.297 -0.576548 0.218369 0.094549 0.335682 ExForceSensed -0.188623 -0.21762 
2025/5/27 12:1:5 timeTick40 800 Desired_Joint 0 0 Plan_Joint 0.0861046 0.0840558 Gen_Joint -0.14 0.37 -0.54 -0.04 0.17 -0.44 0.94 0.35 ActCable_Force 34.12 20.05 59.92 SCorCableForce 101.96 50.88 53.93 71.46 17.89 73.88 BCorCableForce 93.23 45.89 55.04 98.17 74.15 37.14 40.46 73.7 72.7 42.86 40.17 84.3 ExForceMeasured 7.25349 -18.3904 0.165467 0.182464 0.0853744 0.33613 ExForceSensed -0.161281 -0.16299 
2025/5/27 12:1:5 timeTick41 820 Desired_Joint 0 0 Plan_Joint 0.0862646 0.0840358 Gen_Joint -0.14 0.37 -0.54 -0.04 0.17 -0.44 0.94 0.35 ActCable_Force 34.14 20.14 60.15 SCorCableForce 102.16 51.45 55.28 73.04 18.26 73.83 BCorCableForce 92.81 45.45 55.97 98.93 74.16 37.18 40.04 75.02 72.81 42.93 40.48 84.46 ExForceMeasured 6.83599 -13.2704 -0.94926 0.228768 0.0773112 0.194044 ExForceSensed -0.143312 -0.128625 
2025/5/27 12:1:5 timeTick42 840 Desired_Joint 0 0 Plan_Joint 0.0862646 0.0839339 Gen_Joint -0.14 0.37 -0.54 -0.04 0.17 -0.42 0.93 0.35 ActCable_Force 34.14 20.14 60.15 SCorCableForce 102.16 51.45 55.28 73.04 18.26 73.83 BCorCableForce 92.81 45.45 55.97 98.93 74.16 37.18 40.04 75.02 72.81 42.93 40.48 84.46 ExForceMeasured 6.14737 -16.3246 -1.05355 0.18206 0.103606 0.308684 ExForceSensed -0.127753 -0.109415 
2025/5/27 12:1:5 timeTick43 860 Desired_Joint 0 0 Plan_Joint 0.0862646 0.0838319 Gen_Joint -0.14 0.37 -0.54 -0.04 0.17 -0.42 0.93 0.35 ActCable_Force 34.41 20.34 60.47 SCorCableForce 101.68 50.61 54.67 72.13 18.08 73.52 BCorCableForce 93.19 45.69 55.83 98.76 74.16 37.07 40.27 74.3 72.93 43.02 40.12 84.39 ExForceMeasured 6.12844 -16.3444 -0.19423 0.192858 0.0674566 0.30825 ExForceSensed -0.0872494 -0.117374 
2025/5/27 12:1:5 timeTick44 880 Desired_Joint 0 0 Plan_Joint 0.0862646 0.083904 Gen_Joint -0.15 0.38 -0.53 -0.04 0.17 -0.42 0.93 0.35 ActCable_Force 34.41 20.34 60.47 SCorCableForce 101.68 50.61 54.67 72.13 18.08 73.52 BCorCableForce 93.19 45.69 55.83 98.76 74.16 37.07 40.27 74.3 72.93 43.02 40.12 84.39 ExForceMeasured 5.02367 -14.2714 -0.625796 0.187275 0.0946868 0.280675 ExForceSensed -0.10469 -0.137164 
2025/5/27 12:1:5 timeTick45 900 Desired_Joint 0 0 Plan_Joint 0.0862646 0.0839761 Gen_Joint -0.15 0.38 -0.53 -0.04 0.17 -0.42 0.93 0.35 ActCable_Force 34 19.96 60.1 SCorCableForce 101.86 50.72 55.68 73.16 18.23 73.56 BCorCableForce 92.99 45.53 55.74 98.84 74.18 37.11 40.24 75.24 72.66 42.82 39.94 84.41 ExForceMeasured 4.51218 -13.2556 -0.592049 0.20285 0.0860492 0.224028 ExForceSensed -0.210003 -0.186923 
2025/5/27 12:1:5 timeTick46 920 Desired_Joint 0 0 Plan_Joint 0.0862646 0.0840482 Gen_Joint -0.15 0.38 -0.53 -0.04 0.17 -0.42 0.93 0.35 ActCable_Force 34 19.96 60.1 SCorCableForce 101.86 50.72 55.68 73.16 18.23 73.56 BCorCableForce 92.99 45.53 55.74 98.84 74.18 37.11 40.24 75.24 72.66 42.82 39.94 84.41 ExForceMeasured 6.23593 -14.2896 -0.98453 0.213201 0.0861398 0.22304 ExForceSensed -0.236977 -0.204746 
2025/5/27 12:1:5 timeTick47 940 Desired_Joint 0 0 Plan_Joint 0.0862646 0.0840929 Gen_Joint -0.15 0.38 -0.53 -0.04 0.17 -0.43 0.94 0.36 ActCable_Force 34.48 20.32 60.4 SCorCableForce 101.9 50.85 55.74 73.22 18.51 73.81 BCorCableForce 92.77 45.3 55.38 98.9 74.18 37.07 40.31 75.21 72.95 43.16 40.26 84.64 ExForceMeasured 5.70184 -13.2568 -0.157175 0.208295 0.0592167 0.166318 ExForceSensed -0.239238 -0.210116 
2025/5/27 12:1:5 timeTick48 960 Desired_Joint 0 0 Plan_Joint 0.0862646 0.0841376 Gen_Joint -0.14 0.37 -0.53 -0.04 0.17 -0.43 0.94 0.36 ActCable_Force 34.48 20.32 60.4 SCorCableForce 101.9 50.85 55.74 73.22 18.51 73.81 BCorCableForce 92.77 45.3 55.38 98.9 74.18 37.07 40.31 75.21 72.95 43.16 40.26 84.64 ExForceMeasured 6.12205 -14.2985 -0.152006 0.208389 0.0584351 0.307899 ExForceSensed -0.245733 -0.163627 
2025/5/27 12:1:5 timeTick49 980 Desired_Joint 0 0 Plan_Joint 0.0862646 0.0840655 Gen_Joint -0.14 0.37 -0.53 -0.04 0.17 -0.43 0.94 0.36 ActCable_Force 34.34 20.34 60.49 SCorCableForce 102.1 50.49 53.8 71.53 18.17 73.52 BCorCableForce 92.84 45.42 56 99.26 74.36 37.24 40.68 73.48 72.52 42.68 40.1 84.3 ExForceMeasured 5.03793 -14.2782 0.174999 0.197567 0.112862 0.28043 ExForceSensed -0.245733 -0.163627 
2025/5/27 12:1:5 timeTick50 1000 Desired_Joint 0 0 Plan_Joint 0.0862646 0.0839934 Gen_Joint -0.14 0.37 -0.53 -0.04 0.17 -0.43 0.94 0.36 ActCable_Force 34.34 20.34 60.49 SCorCableForce 102.1 50.49 53.8 71.53 18.17 73.52 BCorCableForce 92.84 45.42 56 99.26 74.36 37.24 40.68 73.48 72.52 42.68 40.1 84.3 ExForceMeasured 7.84153 -13.2602 -0.955023 0.213319 0.0674567 0.306925 ExForceSensed -0.261872 -0.109537 
2025/5/27 12:1:5 timeTick51 1020 Desired_Joint 0 0 Plan_Joint 0.0862646 0.0839213 Gen_Joint -0.14 0.37 -0.53 -0.04 0.17 -0.43 0.94 0.36 ActCable_Force 34.39 20.57 60.6 SCorCableForce 102.29 51.38 55.38 72.86 18.19 73.36 BCorCableForce 92.99 45.45 55.59 99.36 73.85 36.92 40.13 74.82 72.75 42.86 39.96 84.28 ExForceMeasured 6.15131 -14.2932 0.209377 0.213198 0.103739 0.307902 ExForceSensed -0.257234 -0.0590556 
2025/5/27 12:1:5 timeTick52 1040 Desired_Joint 0 0 Plan_Joint 0.0862646 0.0838581 Gen_Joint -0.14 0.37 -0.53 -0.04 0.17 -0.43 0.94 0.35 ActCable_Force 34.39 20.57 60.6 SCorCableForce 102.29 51.38 55.38 72.86 18.19 73.36 BCorCableForce 92.99 45.45 55.59 99.36 73.85 36.92 40.13 74.82 72.75 42.86 39.96 84.28 ExForceMeasured 6.23125 -16.3399 -1.00725 0.197838 0.0770532 0.223329 ExForceSensed -0.257581 -0.0281544 
2025/5/27 12:1:5 timeTick53 1060 Desired_Joint 0 0 Plan_Joint 0.0862646 0.0837948 Gen_Joint -0.14 0.37 -0.54 -0.05 0.17 -0.43 0.94 0.35 ActCable_Force 33.91 20 59.85 SCorCableForce 101.72 51.03 53.99 71.4 18.35 73.56 BCorCableForce 92.89 45.45 55.62 98.91 73.79 37.04 40.21 73.43 73.22 43.38 40.51 84.46 ExForceMeasured 6.24232 -16.3356 -1.02675 0.19767 0.0951612 0.223392 ExForceSensed -0.27275 -0.0380808 
2025/5/27 12:1:5 timeTick54 1080 Desired_Joint 0 0 Plan_Joint 0.0863845 0.0838348 Gen_Joint -0.14 0.37 -0.54 -0.05 0.17 -0.43 0.94 0.35 ActCable_Force 33.91 20 59.85 SCorCableForce 101.72 51.03 53.99 71.4 18.35 73.56 BCorCableForce 92.89 45.45 55.62 98.91 73.79 37.04 40.21 73.43 73.22 43.38 40.51 84.46 ExForceMeasured 6.14344 -16.3323 -0.633642 0.187375 0.0945853 0.308499 ExForceSensed -0.250472 -0.11467 
2025/5/27 12:1:5 timeTick55 1100 Desired_Joint 0 0 Plan_Joint 0.0865045 0.0838748 Gen_Joint -0.14 0.37 -0.54 -0.05 0.17 -0.43 0.94 0.35 ActCable_Force 33.96 20.14 59.79 SCorCableForce 101.86 51.03 55.14 72.52 18.37 73.45 BCorCableForce 92.53 45.2 55.35 98.97 74.05 37.3 40.46 74.52 72.63 42.82 39.92 84.44 ExForceMeasured 5.62617 -15.3059 -0.212845 0.192625 0.085859 0.251845 ExForceSensed -0.208731 -0.188885 
2025/5/27 12:1:5 timeTick56 1120 Desired_Joint 0 0 Plan_Joint 0.0866245 0.0839148 Gen_Joint -0.14 0.37 -0.54 -0.05 0.17 -0.43 0.94 0.35 ActCable_Force 33.96 20.14 59.79 SCorCableForce 101.86 51.03 55.14 72.52 18.37 73.45 BCorCableForce 92.53 45.2 55.35 98.97 74.05 37.3 40.46 74.52 72.63 42.82 39.92 84.44 ExForceMeasured 8.4443 -12.2266 0.655142 0.218529 0.0766255 0.277671 ExForceSensed -0.209757 -0.227566 
2025/5/27 12:1:5 timeTick57 1140 Desired_Joint 0 0 Plan_Joint 0.0866245 0.0840225 Gen_Joint -0.14 0.37 -0.54 -0.05 0.17 -0.42 0.93 0.35 ActCable_Force 34.23 20.41 60.13 SCorCableForce 102.19 51.45 55.02 72.53 18.6 73.63 BCorCableForce 92.96 45.69 55.92 99.21 74.24 37.42 40.41 74.42 72.86 43.09 40.19 84.57 ExForceMeasured 5.10252 -12.2335 0.250176 0.213406 0.0681113 0.19484 ExForceSensed -0.206325 -0.258392 
2025/5/27 12:1:5 timeTick58 1160 Desired_Joint 0 0 Plan_Joint 0.0866245 0.0841302 Gen_Joint -0.14 0.37 -0.54 -0.05 0.17 -0.42 0.93 0.35 ActCable_Force 34.23 20.41 60.13 SCorCableForce 102.19 51.45 55.02 72.53 18.6 73.63 BCorCableForce 92.96 45.69 55.92 99.21 74.24 37.42 40.41 74.42 72.86 43.09 40.19 84.57 ExForceMeasured 6.74166 -15.2947 -0.631227 0.187302 0.0946886 0.279682 ExForceSensed -0.18526 -0.244808 
2025/5/27 12:1:5 timeTick59 1180 Desired_Joint 0 0 Plan_Joint 0.0866245 0.0842379 Gen_Joint -0.14 0.37 -0.54 -0.05 0.17 -0.42 0.93 0.35 ActCable_Force 34.09 20.23 59.81 SCorCableForce 101.6 51.12 55.83 72.94 18.39 73.36 BCorCableForce 92.68 45.3 56 98.15 74.3 37.42 40.65 74.97 72.36 42.61 40.14 84.35 ExForceMeasured 4.41758 -15.3246 0.211598 0.197976 0.0765423 0.309121 ExForceSensed -0.18526 -0.244808 
2025/5/27 12:1:5 timeTick60 1200 Desired_Joint 0 0 Plan_Joint 0.0866245 0.0843456 Gen_Joint -0.14 0.37 -0.54 -0.05 0.17 -0.42 0.93 0.35 ActCable_Force 34.09 20.23 59.81 SCorCableForce 101.6 51.12 55.83 72.94 18.39 73.36 BCorCableForce 92.68 45.3 56 98.15 74.3 37.42 40.65 74.97 72.36 42.61 40.14 84.35 ExForceMeasured 6.14024 -14.2975 0.228884 0.213367 0.0856307 0.307839 ExForceSensed -0.167283 -0.205019 
2025/5/27 12:1:5 timeTick61 1220 Desired_Joint 0 0 Plan_Joint 0.0866245 0.0844533 Gen_Joint -0.14 0.37 -0.54 -0.05 0.17 -0.42 0.93 0.35 ActCable_Force 34.12 20.25 59.92 SCorCableForce 101.93 51.26 55.65 73.01 18.28 73.27 BCorCableForce 92.63 45.14 55.17 99.53 74.34 37.6 39.62 74.9 72.72 42.98 40.6 84.26 ExForceMeasured 5.63798 -13.259 0.210269 0.213134 0.104033 0.251434 ExForceSensed -0.153878 -0.188149 
2025/5/27 12:1:5 timeTick62 1240 Desired_Joint 0 0 Plan_Joint 0.0866245 0.084561 Gen_Joint -0.14 0.37 -0.54 -0.05 0.17 -0.42 0.93 0.35 ActCable_Force 34.12 20.25 59.92 SCorCableForce 101.93 51.26 55.65 73.01 18.28 73.27 BCorCableForce 92.63 45.14 55.17 99.53 74.34 37.6 39.62 74.9 72.72 42.98 40.6 84.26 ExForceMeasured 4.50641 -13.2449 -0.204999 0.192525 0.0859605 0.224022 ExForceSensed -0.14219 -0.197481 
2025/5/27 12:1:5 timeTick63 1260 Desired_Joint 0 0 Plan_Joint 0.0866245 0.0846687 Gen_Joint -0.14 0.37 -0.54 -0.05 0.17 -0.42 0.93 0.35 ActCable_Force 34.03 20.09 59.88 SCorCableForce 101.54 50.91 54.84 72.52 18.26 73.2 BCorCableForce 92.69 45.42 55.74 99.02 73.93 37.21 40.92 74.25 73.2 43.47 41.19 84.14 ExForceMeasured 3.92292 -14.3151 -0.161212 0.223707 0.0861015 0.252542 ExForceSensed -0.132916 -0.199281 
2025/5/27 12:1:5 timeTick64 1280 Desired_Joint 0 0 Plan_Joint 0.0866245 0.0847763 Gen_Joint -0.14 0.37 -0.54 -0.05 0.17 -0.42 0.93 0.35 ActCable_Force 34.03 20.09 59.88 SCorCableForce 101.54 50.91 54.84 72.52 18.26 73.2 BCorCableForce 92.69 45.42 55.74 99.02 73.93 37.21 40.92 74.25 73.2 43.47 41.19 84.14 ExForceMeasured 6.73195 -15.2918 0.175728 0.182292 0.0855792 0.27949 ExForceSensed -0.125126 -0.233603 
2025/5/27 12:1:5 timeTick65 1300 Desired_Joint 0 0 Plan_Joint 0.0866245 0.084884 Gen_Joint -0.14 0.37 -0.54 -0.05 0.17 -0.42 0.93 0.35 ActCable_Force 34.5 20.52 60.76 SCorCableForce 101.59 51.03 53.81 71.14 18.6 73.54 BCorCableForce 92.93 45.44 54.71 98.33 73.84 36.87 40.21 73.36 72.59 42.88 40.28 84.53 ExForceMeasured 7.34171 -14.2755 -0.595957 0.202869 0.08586 0.250686 ExForceSensed -0.117618 -0.274934 
2025/5/27 12:1:5 timeTick66 1320 Desired_Joint 0 0 Plan_Joint 0.0866245 0.0849917 Gen_Joint -0.14 0.37 -0.54 -0.05 0.17 -0.42 0.93 0.35 ActCable_Force 34.5 20.52 60.76 SCorCableForce 101.59 51.03 53.81 71.14 18.6 73.54 BCorCableForce 92.93 45.44 54.71 98.33 73.84 36.87 40.21 73.36 72.59 42.88 40.28 84.53 ExForceMeasured 5.63724 -15.3016 -0.232352 0.192456 0.103967 0.251908 ExForceSensed -0.110136 -0.316843 
2025/5/27 12:1:5 timeTick67 1340 Desired_Joint 0 0 Plan_Joint 0.0866245 0.0850994 Gen_Joint -0.14 0.37 -0.54 -0.05 0.17 -0.43 0.92 0.35 ActCable_Force 34.46 20.45 60.83 SCorCableForce 101.62 51.24 55.35 73.27 18.57 73.56 BCorCableForce 92.92 45.41 54.43 98.97 73.81 37.21 40.53 74.9 72.75 42.98 40.37 84.48 ExForceMeasured 6.83368 -13.2263 -0.227521 0.192312 0.104174 0.194274 ExForceSensed -0.102157 -0.348197 
2025/5/27 12:1:5 timeTick68 1360 Desired_Joint 0 0 Plan_Joint 0.0867845 0.0851394 Gen_Joint -0.14 0.37 -0.54 -0.05 0.17 -0.43 0.92 0.35 ActCable_Force 34.46 20.45 60.83 SCorCableForce 101.62 51.24 55.35 73.27 18.57 73.56 BCorCableForce 92.92 45.41 54.43 98.97 73.81 37.21 40.53 74.9 72.75 42.98 40.37 84.48 ExForceMeasured 6.22439 -14.2682 -0.210429 0.192552 0.0859623 0.223028 ExForceSensed -0.0444166 -0.359991 
2025/5/27 12:1:5 timeTick69 1380 Desired_Joint 0 0 Plan_Joint 0.0869245 0.0851194 Gen_Joint -0.14 0.38 -0.55 -0.04 0.17 -0.43 0.92 0.35 ActCable_Force 34.23 20.14 60.76 SCorCableForce 101.71 51.02 54.13 71.7 18.55 73.54 BCorCableForce 92.63 45.04 55.94 98.15 73.93 37.48 40.35 73.75 72.68 42.93 40.48 84.55 ExForceMeasured 6.22365 -14.2872 1.02978 0.208327 0.0770085 0.222534 ExForceSensed -0.0444166 -0.359991 
2025/5/27 12:1:5 timeTick70 1400 Desired_Joint 0 0 Plan_Joint 0.0870645 0.0850994 Gen_Joint -0.14 0.38 -0.55 -0.04 0.17 -0.43 0.92 0.35 ActCable_Force 34.23 20.14 60.76 SCorCableForce 101.71 51.02 54.13 71.7 18.55 73.54 BCorCableForce 92.63 45.04 55.94 98.15 73.93 37.48 40.35 73.75 72.68 42.93 40.48 84.55 ExForceMeasured 5.68432 -9.09056 -1.4115 0.176667 0.0769232 0.166647 ExForceSensed 0.0298247 -0.298388 
2025/5/27 12:1:5 timeTick71 1420 Desired_Joint 0 0 Plan_Joint 0.0872045 0.0850794 Gen_Joint -0.14 0.38 -0.55 -0.04 0.17 -0.43 0.92 0.35 ActCable_Force 34.43 20.02 60.94 SCorCableForce 101.89 51.2 56.18 73.64 18.3 73.31 BCorCableForce 93.05 45.51 54.22 98.97 74.36 37.29 40.52 75.96 72.77 42.73 40.35 84.41 ExForceMeasured 5.83058 -15.2901 0.155923 0.197543 0.114029 0.0815589 ExForceSensed 0.0505339 -0.283771 
2025/5/27 12:1:5 timeTick72 1440 Desired_Joint 0 0 Plan_Joint 0.0873245 0.0850594 Gen_Joint -0.14 0.38 -0.55 -0.04 0.17 -0.43 0.93 0.35 ActCable_Force 34.43 20.02 60.94 SCorCableForce 101.89 51.2 56.18 73.64 18.3 73.31 BCorCableForce 93.05 45.51 54.22 98.97 74.36 37.29 40.52 75.96 72.77 42.73 40.35 84.41 ExForceMeasured 5.02944 -14.282 -1.01285 0.1976 0.0947755 0.280681 ExForceSensed 0.0825294 -0.283912 
2025/5/27 12:1:5 timeTick73 1460 Desired_Joint 0 0 Plan_Joint 0.0874445 0.0850394 Gen_Joint -0.14 0.38 -0.55 -0.04 0.17 -0.43 0.93 0.35 ActCable_Force 34.21 19.77 60.69 SCorCableForce 101.98 51.08 55.17 72.59 18.26 73.31 BCorCableForce 92.92 44.86 55.16 99.74 74.6 37.53 40.55 74.66 73.31 43.18 40.35 84.39 ExForceMeasured 4.42619 -13.2665 -0.18559 0.208025 0.0946495 0.309018 ExForceSensed 0.107063 -0.280401 
2025/5/27 12:1:5 timeTick74 1480 Desired_Joint 0 0 Plan_Joint 0.0874445 0.0849761 Gen_Joint -0.14 0.38 -0.54 -0.04 0.17 -0.43 0.93 0.35 ActCable_Force 34.21 19.77 60.69 SCorCableForce 101.98 51.08 55.17 72.59 18.26 73.31 BCorCableForce 92.92 44.86 55.16 99.74 74.6 37.53 40.55 74.66 73.31 43.18 40.35 84.39 ExForceMeasured 7.34775 -12.2179 0.214207 0.213054 0.103945 0.250268 ExForceSensed 0.0586408 -0.304016 
2025/5/27 12:1:5 timeTick75 1500 Desired_Joint 0 0 Plan_Joint 0.0874445 0.0849129 Gen_Joint -0.14 0.38 -0.54 -0.04 0.17 -0.43 0.93 0.35 ActCable_Force 34.09 19.57 60.67 SCorCableForce 102.13 50.69 55.62 72.88 18.19 73.43 BCorCableForce 92.84 44.63 54.98 99.77 74.63 37.18 40.37 75 72.95 42.64 40.05 84.41 ExForceMeasured 6.34045 -16.3578 -0.179658 0.22374 0.0867834 0.137791 ExForceSensed -0.0640197 -0.346151 
2025/5/27 12:1:5 timeTick76 1520 Desired_Joint 0 0 Plan_Joint 0.0874445 0.0848497 Gen_Joint -0.14 0.38 -0.54 -0.04 0.17 -0.43 0.93 0.35 ActCable_Force 34.09 19.57 60.67 SCorCableForce 102.13 50.69 55.62 72.88 18.19 73.43 BCorCableForce 92.84 44.63 54.98 99.77 74.63 37.18 40.37 75 72.95 42.64 40.05 84.41 ExForceMeasured 4.42619 -13.2665 -0.18559 0.208025 0.0946495 0.309018 ExForceSensed -0.121716 -0.367808 
2025/5/27 12:1:5 timeTick77 1540 Desired_Joint 0 0 Plan_Joint 0.0874445 0.0847864 Gen_Joint -0.14 0.38 -0.54 -0.04 0.17 -0.43 0.93 0.35 ActCable_Force 33.94 19.28 60.38 SCorCableForce 102.55 51.18 54.93 72.31 18.28 73.61 BCorCableForce 93.16 45.14 54.32 99.8 74.39 37.07 40.19 74.37 73.25 42.82 40.35 84.51 ExForceMeasured 7.86685 -15.2864 -1.85656 0.18699 0.112628 0.30771 ExForceSensed -0.152727 -0.37394 
2025/5/27 12:1:5 timeTick78 1560 Desired_Joint 0 0 Plan_Joint 0.0874445 0.0847232 Gen_Joint -0.14 0.38 -0.54 -0.04 0.17 -0.43 0.93 0.35 ActCable_Force 33.94 19.28 60.38 SCorCableForce 102.55 51.18 54.93 72.31 18.28 73.61 BCorCableForce 93.16 45.14 54.32 99.8 74.39 37.07 40.19 74.37 73.25 42.82 40.35 84.51 ExForceMeasured 7.4262 -16.3261 -0.204829 0.192791 0.0682399 0.165676 ExForceSensed -0.149294 -0.376633 
2025/5/27 12:1:5 timeTick79 1580 Desired_Joint 0 0 Plan_Joint 0.0874445 0.0846599 Gen_Joint -0.14 0.38 -0.54 -0.04 0.17 -0.43 0.93 0.35 ActCable_Force 34.03 19.37 60.49 SCorCableForce 102.62 51.17 55.13 72.18 18.57 73.99 BCorCableForce 93.17 44.96 55.37 100.02 74.55 37.65 40.68 74.46 73 42.64 40.23 84.91 ExForceMeasured 6.24306 -14.293 -0.584132 0.218347 0.0952272 0.222917 ExForceSensed -0.149294 -0.376633 
2025/5/27 12:1:5 timeTick80 1600 Desired_Joint 0 0 Plan_Joint 0.0874445 0.0845967 Gen_Joint -0.14 0.38 -0.54 -0.04 0.17 -0.43 0.93 0.35 ActCable_Force 34.03 19.37 60.49 SCorCableForce 102.62 51.17 55.13 72.18 18.57 73.99 BCorCableForce 93.17 44.96 55.37 100.02 74.55 37.65 40.68 74.46 73 42.64 40.23 84.91 ExForceMeasured 9.03648 -13.2465 -0.152606 0.208272 0.0586434 0.249272 ExForceSensed -0.145307 -0.337749 
2025/5/27 12:1:5 timeTick81 1620 Desired_Joint 0 0 Plan_Joint 0.0874445 0.0845335 Gen_Joint -0.14 0.38 -0.54 -0.04 0.17 -0.43 0.93 0.35 ActCable_Force 34.89 20.18 61.21 SCorCableForce 102.68 50.94 54.99 72.22 18.42 73.77 BCorCableForce 93.05 45.01 55.62 98.3 74.67 37.17 40.21 74.6 72.88 42.5 40.19 84.64 ExForceMeasured 8.45645 -14.2832 0.225869 0.213322 0.0857357 0.278029 ExForceSensed -0.140697 -0.310768 
2025/5/27 12:1:5 timeTick82 1640 Desired_Joint 0 0 Plan_Joint 0.0874445 0.0844702 Gen_Joint -0.14 0.38 -0.54 -0.04 0.17 -0.42 0.93 0.35 ActCable_Force 34.89 20.18 61.21 SCorCableForce 102.68 50.94 54.99 72.22 18.42 73.77 BCorCableForce 93.05 45.01 55.62 98.3 74.67 37.17 40.21 74.6 72.88 42.5 40.19 84.64 ExForceMeasured 6.2191 -14.2832 -0.577972 0.203045 0.067943 0.222971 ExForceSensed -0.131946 -0.283801 
2025/5/27 12:1:5 timeTick83 1660 Desired_Joint 0 0 Plan_Joint 0.0874445 0.0844419 Gen_Joint -0.14 0.38 -0.54 -0.04 0.17 -0.42 0.93 0.35 ActCable_Force 34.46 19.57 60.63 SCorCableForce 102.62 50.9 55.8 73.16 18.21 73.61 BCorCableForce 92.81 44.78 54.8 99.44 74.75 37.21 40.21 75.29 73.25 42.98 39.98 84.57 ExForceMeasured 6.24258 -14.2673 0.170461 0.19753 0.113158 0.222968 ExForceSensed -0.128336 -0.257626 
2025/5/27 12:1:5 timeTick84 1680 Desired_Joint 0 0 Plan_Joint 0.0874445 0.0844136 Gen_Joint -0.14 0.38 -0.54 -0.04 0.17 -0.42 0.93 0.35 ActCable_Force 34.46 19.57 60.63 SCorCableForce 102.62 50.9 55.8 73.16 18.21 73.61 BCorCableForce 92.81 44.78 54.8 99.44 74.75 37.21 40.21 75.29 73.25 42.98 39.98 84.57 ExForceMeasured 4.51646 -15.3278 -0.181513 0.208271 0.0771182 0.224014 ExForceSensed -0.126314 -0.250908 
2025/5/27 12:1:5 timeTick85 1700 Desired_Joint 0 0 Plan_Joint 0.0874445 0.0843854 Gen_Joint -0.14 0.38 -0.54 -0.04 0.17 -0.42 0.93 0.35 ActCable_Force 34.5 19.64 60.67 SCorCableForce 102.23 50.42 54.92 72.31 18.23 73.63 BCorCableForce 93.07 45.17 55.29 99.02 74.76 37.27 40.19 74.46 73.11 42.86 39.96 84.51 ExForceMeasured 4.50641 -13.2449 -0.204999 0.192525 0.0859605 0.224022 ExForceSensed -0.122089 -0.265133 
2025/5/27 12:1:5 timeTick86 1720 Desired_Joint 0 0 Plan_Joint 0.0874445 0.0843571 Gen_Joint -0.14 0.38 -0.54 -0.04 0.17 -0.42 0.93 0.35 ActCable_Force 34.5 19.64 60.67 SCorCableForce 102.23 50.42 54.92 72.31 18.23 73.63 BCorCableForce 93.07 45.17 55.29 99.02 74.76 37.27 40.19 74.46 73.11 42.86 39.96 84.51 ExForceMeasured 3.81521 -12.2357 -1.78639 0.202708 0.0853911 0.3381 ExForceSensed -0.115855 -0.280988 
2025/5/27 12:1:6 timeTick87 1740 Desired_Joint 0 0 Plan_Joint 0.0874445 0.0843288 Gen_Joint -0.14 0.38 -0.54 -0.04 0.17 -0.42 0.93 0.35 ActCable_Force 34.21 19.46 60.38 SCorCableForce 102.71 50.7 56.39 73.84 18.05 73.54 BCorCableForce 92.63 44.81 54.89 99.42 74.97 37.38 40.27 75.96 73 42.77 39.78 84.41 ExForceMeasured 7.84289 -13.253 -0.167575 0.208141 0.0764554 0.306796 ExForceSensed -0.119059 -0.295128 
2025/5/27 12:1:6 timeTick88 1760 Desired_Joint 0 0 Plan_Joint 0.0874445 0.0843005 Gen_Joint -0.14 0.38 -0.54 -0.04 0.17 -0.42 0.93 0.35 ActCable_Force 34.21 19.46 60.38 SCorCableForce 102.71 50.7 56.39 73.84 18.05 73.54 BCorCableForce 92.63 44.81 54.89 99.42 74.97 37.38 40.27 75.96 73 42.77 39.78 84.41 ExForceMeasured 7.32671 -14.2876 -0.156545 0.208352 0.0587313 0.250437 ExForceSensed -0.121955 -0.309155 
2025/5/27 12:1:6 timeTick89 1780 Desired_Joint 0 0 Plan_Joint 0.0874445 0.0842722 Gen_Joint -0.14 0.38 -0.54 -0.04 0.17 -0.42 0.93 0.35 ActCable_Force 34.48 19.68 60.58 SCorCableForce 102.31 50.33 54.5 71.91 18.23 73.7 BCorCableForce 92.65 44.81 54.9 98.94 74.72 37.09 40.07 74.06 72.91 42.79 39.78 84.53 ExForceMeasured 2.6981 -16.3628 1.01462 0.193047 0.0675207 0.310095 ExForceSensed -0.121955 -0.309155 
2025/5/27 12:1:6 timeTick90 1800 Desired_Joint 0 0 Plan_Joint 0.0874445 0.084244 Gen_Joint -0.14 0.38 -0.54 -0.04 0.17 -0.42 0.93 0.35 ActCable_Force 34.48 19.68 60.58 SCorCableForce 102.31 50.33 54.5 71.91 18.23 73.7 BCorCableForce 92.65 44.81 54.9 98.94 74.72 37.09 40.07 74.06 72.91 42.79 39.78 84.53 ExForceMeasured 6.83884 -11.2016 -0.959399 0.228492 0.0953296 0.193935 ExForceSensed -0.127658 -0.29747 
2025/5/27 12:1:6 timeTick91 1820 Desired_Joint 0 0 Plan_Joint 0.0874445 0.0842157 Gen_Joint -0.14 0.38 -0.54 -0.04 0.17 -0.42 0.93 0.35 ActCable_Force 34.46 19.59 60.51 SCorCableForce 102.28 50.31 54.32 71.68 18.46 73.99 BCorCableForce 92.96 45.05 55.13 98.96 74.64 37.04 40.06 73.97 72.84 42.64 39.74 84.8 ExForceMeasured 8.03121 -13.2119 -0.632457 0.187128 0.0953823 0.136935 ExForceSensed -0.132191 -0.286971 
2025/5/27 12:1:6 timeTick92 1840 Desired_Joint 0 0 Plan_Joint 0.0874445 0.0841874 Gen_Joint -0.14 0.38 -0.54 -0.04 0.17 -0.42 0.93 0.35 ActCable_Force 34.46 19.59 60.51 SCorCableForce 102.28 50.31 54.32 71.68 18.46 73.99 BCorCableForce 92.96 45.05 55.13 98.96 74.64 37.04 40.06 73.97 72.84 42.64 39.74 84.8 ExForceMeasured 6.33393 -18.3897 -0.235228 0.192738 0.0866286 0.138259 ExForceSensed -0.134021 -0.258256 
2025/5/27 12:1:6 timeTick93 1860 Desired_Joint 0 0 Plan_Joint 0.0874445 0.0841591 Gen_Joint -0.14 0.38 -0.54 -0.04 0.17 -0.42 0.93 0.35 ActCable_Force 34.28 19.48 60.29 SCorCableForce 102.49 50.52 55.1 72.48 18.21 73.72 BCorCableForce 92.83 44.96 55.04 99.21 74.73 37.14 40.07 74.61 73.04 42.91 39.92 84.57 ExForceMeasured 7.94312 -13.249 0.226761 0.213257 0.08603 0.221561 ExForceSensed -0.128581 -0.230858 
2025/5/27 12:1:6 timeTick94 1880 Desired_Joint 0 0 Plan_Joint 0.0872445 0.0840591 Gen_Joint -0.13 0.4 -0.53 -0.04 0.17 -0.42 0.93 0.35 ActCable_Force 34.28 19.48 60.29 SCorCableForce 102.49 50.52 55.1 72.48 18.21 73.72 BCorCableForce 92.83 44.96 55.04 99.21 74.73 37.14 40.07 74.61 73.04 42.91 39.92 84.57 ExForceMeasured 4.43441 -15.3309 -0.194959 0.208132 0.0947391 0.30919 ExForceSensed -0.125872 -0.219977 
2025/5/27 12:1:6 timeTick95 1900 Desired_Joint 0 0 Plan_Joint 0.0870445 0.0839591 Gen_Joint -0.13 0.4 -0.53 -0.04 0.17 -0.42 0.93 0.35 ActCable_Force 34.93 20.09 60.83 SCorCableForce 102.46 50.48 54.11 71.56 18.26 73.77 BCorCableForce 92.8 45.02 55.08 99.14 74.73 37.09 40.01 73.76 72.93 42.77 39.8 84.62 ExForceMeasured 3.99553 -14.2645 0.173575 0.182244 0.0862557 0.167719 ExForceSensed -0.12424 -0.201548 
2025/5/27 12:1:6 timeTick96 1920 Desired_Joint 0 0 Plan_Joint 0.0868445 0.0838591 Gen_Joint -0.13 0.4 -0.53 -0.04 0.17 -0.42 0.93 0.35 ActCable_Force 34.93 20.09 60.83 SCorCableForce 102.46 50.48 54.11 71.56 18.26 73.77 BCorCableForce 92.8 45.02 55.08 99.14 74.73 37.09 40.01 73.76 72.93 42.77 39.8 84.62 ExForceMeasured 5.13111 -18.419 -0.197835 0.208414 0.0774006 0.195541 ExForceSensed -0.122536 -0.183156 
2025/5/27 12:1:6 timeTick97 1940 Desired_Joint 0 0 Plan_Joint 0.0866845 0.0837191 Gen_Joint -0.13 0.4 -0.53 -0.04 0.18 -0.43 0.93 0.35 ActCable_Force 34.61 19.82 60.29 SCorCableForce 102.88 50.76 56.04 73.49 18.14 73.61 BCorCableForce 92.6 44.9 55.11 99.48 74.75 37.08 40.06 75.6 73.25 43.16 40.17 84.41 ExForceMeasured 6.21381 -14.2983 -0.945515 0.213538 0.0499236 0.222915 ExForceSensed -0.125482 -0.194302 
2025/5/27 12:1:6 timeTick98 1960 Desired_Joint 0 0 Plan_Joint 0.0865245 0.0835791 Gen_Joint -0.13 0.4 -0.53 -0.04 0.18 -0.43 0.93 0.35 ActCable_Force 34.61 19.82 60.29 SCorCableForce 102.88 50.76 56.04 73.49 18.14 73.61 BCorCableForce 92.6 44.9 55.11 99.48 74.75 37.08 40.06 75.6 73.25 43.16 40.17 84.41 ExForceMeasured 6.83626 -13.2257 -1.43487 0.192176 0.104196 0.194588 ExForceSensed -0.125482 -0.194302 
2025/5/27 12:1:6 timeTick99 1980 Desired_Joint 0 0 Plan_Joint 0.0865245 0.0835191 Gen_Joint -0.14 0.38 -0.53 -0.04 0.18 -0.43 0.93 0.35 ActCable_Force 34.28 20.07 60.08 SCorCableForce 102.58 50.48 55.13 72.53 18.26 73.79 BCorCableForce 93.05 45.41 55.62 99.12 74.48 36.83 39.86 74.67 72.88 42.75 39.83 84.62 ExForceMeasured 5.11468 -14.2901 -0.179098 0.208199 0.0772215 0.195197 ExForceSensed -0.0984813 -0.179914 
2025/5/27 12:1:6 timeTick100 2000 Desired_Joint 0 0 Plan_Joint 0.0865245 0.0834591 Gen_Joint -0.14 0.38 -0.53 -0.04 0.18 -0.43 0.93 0.35 ActCable_Force 34.28 20.07 60.08 SCorCableForce 102.58 50.48 55.13 72.53 18.26 73.79 BCorCableForce 93.05 45.41 55.62 99.12 74.48 36.83 39.86 74.67 72.88 42.75 39.83 84.62 ExForceMeasured 5.51378 -13.2532 -0.177907 0.192715 0.0671742 0.336723 ExForceSensed -0.0984781 -0.11669 
2025/5/27 12:1:6 timeTick101 2020 Desired_Joint 0 0 Plan_Joint 0.0865245 0.0833991 Gen_Joint -0.14 0.38 -0.53 -0.04 0.18 -0.43 0.93 0.35 ActCable_Force 33.98 19.91 59.63 SCorCableForce 102.5 50.61 55.64 73.1 18.26 73.7 BCorCableForce 92.5 45.17 55.4 98.91 74.37 37.05 40.03 75.09 72.97 43.13 40.3 84.41 ExForceMeasured 5.61796 -13.2415 -0.203476 0.192517 0.0857694 0.251673 ExForceSensed -0.05644 -0.0734232 
2025/5/27 12:1:6 timeTick102 2040 Desired_Joint 0.00014975 3.74375e-05 Plan_Joint 0.0865248 0.0833574 Gen_Joint -0.14 0.38 -0.53 -0.04 0.17 -0.42 0.93 0.35 ActCable_Force 33.98 19.91 59.63 SCorCableForce 102.5 50.61 55.64 73.1 18.26 73.7 BCorCableForce 92.5 45.17 55.4 98.91 74.37 37.05 40.03 75.09 72.97 43.13 40.3 84.41 ExForceMeasured 5.62482 -15.3131 -1.00029 0.197803 0.0768603 0.251974 ExForceSensed -0.0547235 -0.0379706 
2025/5/27 12:1:6 timeTick103 2060 Desired_Joint 0.000598 0.0001495 Plan_Joint 0.086526 0.0833247 Gen_Joint -0.14 0.38 -0.53 -0.04 0.17 -0.42 0.93 0.35 ActCable_Force 34.34 20 59.63 SCorCableForce 102.59 51.29 54.77 72.39 18.32 73.74 BCorCableForce 92.35 45.27 55.71 99.21 74.52 37.41 40.52 74.34 72.75 43.11 40.28 84.46 ExForceMeasured 5.70468 -11.1881 -0.167314 0.20802 0.0772351 0.166209 ExForceSensed -0.0892374 -0.0169658 
2025/5/27 12:1:6 timeTick104 2080 Desired_Joint 0.00134325 0.000335812 Plan_Joint 0.0865428 0.083367 Gen_Joint -0.14 0.38 -0.53 -0.05 0.17 -0.42 0.93 0.35 ActCable_Force 34.34 20 59.63 SCorCableForce 102.59 51.29 54.77 72.39 18.32 73.74 BCorCableForce 92.35 45.27 55.71 99.21 74.52 37.41 40.52 74.34 72.75 43.11 40.28 84.46 ExForceMeasured 5.72505 -15.3091 -0.605956 0.20292 0.0864349 0.166738 ExForceSensed -0.162671 -0.0340777 
2025/5/27 12:1:6 timeTick105 2100 Desired_Joint 0.002384 0.000596 Plan_Joint 0.0865726 0.0833983 Gen_Joint -0.14 0.38 -0.53 -0.05 0.17 -0.42 0.93 0.35 ActCable_Force 34.32 20.25 59.51 SCorCableForce 102.73 51.15 54.84 72.42 18.69 73.88 BCorCableForce 92.66 45.74 56.07 98.96 74.67 37.45 40.44 74.24 72.34 42.93 40.1 84.6 ExForceMeasured 3.31071 -13.2777 0.232791 0.213347 0.0858199 0.281181 ExForceSensed -0.215879 -0.072992 
2025/5/27 12:1:6 timeTick106 2120 Desired_Joint 0.00371875 0.000929688 Plan_Joint 0.086619 0.0834154 Gen_Joint -0.14 0.38 -0.53 -0.05 0.17 -0.42 0.93 0.35 ActCable_Force 34.32 20.25 59.51 SCorCableForce 102.73 51.15 54.84 72.42 18.69 73.88 BCorCableForce 92.66 45.74 56.07 98.96 74.67 37.45 40.44 74.24 72.34 42.93 40.1 84.6 ExForceMeasured 5.63907 -15.32 -0.199497 0.208095 0.0950352 0.251728 ExForceSensed -0.235599 -0.0885991 
2025/5/27 12:1:6 timeTick107 2140 Desired_Joint 0.005346 0.0013365 Plan_Joint 0.086619 0.0834823 Gen_Joint -0.14 0.38 -0.53 -0.05 0.18 -0.42 0.93 0.35 ActCable_Force 34.16 20.21 59.49 SCorCableForce 102.71 51.2 54.74 72.24 18.37 73.49 BCorCableForce 92.23 45.41 55.82 98.97 74.63 37.48 40.56 74.08 72.63 43.43 40.57 84.21 ExForceMeasured 6.14344 -16.3323 -0.633642 0.187375 0.0945853 0.308499 ExForceSensed -0.250424 -0.0952117 
2025/5/27 12:1:6 timeTick108 2160 Desired_Joint 0.00726425 0.00181606 Plan_Joint 0.086619 0.0835876 Gen_Joint -0.14 0.38 -0.53 -0.05 0.18 -0.42 0.93 0.35 ActCable_Force 34.16 20.21 59.49 SCorCableForce 102.71 51.2 54.74 72.24 18.37 73.49 BCorCableForce 92.23 45.41 55.82 98.97 74.63 37.48 40.56 74.08 72.63 43.43 40.57 84.21 ExForceMeasured 7.2539 -14.2679 -0.222353 0.192406 0.103392 0.335855 ExForceSensed -0.250424 -0.0952117 
2025/5/27 12:1:6 timeTick109 2180 Desired_Joint 0.009472 0.002368 Plan_Joint 0.0866901 0.0833329 Gen_Joint -0.14 0.37 -0.54 -0.04 0.18 -0.42 0.93 0.35 ActCable_Force 34.41 20.36 59.67 SCorCableForce 102.17 50.99 55.62 73.22 18.53 73.7 BCorCableForce 92.45 45.63 56.07 98.58 74.45 37.45 40.58 75.08 72.72 43.54 40.73 84.41 ExForceMeasured 1.70192 -14.2958 -0.617018 0.202769 0.104436 0.197605 ExForceSensed -0.250105 -0.0780981 
2025/5/27 12:1:6 timeTick110 2200 Desired_Joint 0.0119678 0.00299194 Plan_Joint 0.0867799 0.0830418 Gen_Joint -0.14 0.37 -0.54 -0.04 0.18 -0.42 0.93 0.35 ActCable_Force 34.41 20.36 59.67 SCorCableForce 102.17 50.99 55.62 73.22 18.53 73.7 BCorCableForce 92.45 45.63 56.07 98.58 74.45 37.45 40.58 75.08 72.72 43.54 40.73 84.41 ExForceMeasured 6.829 -15.2766 -0.250238 0.176949 0.095087 0.194563 ExForceSensed -0.221038 -0.0349221 
2025/5/27 12:1:6 timeTick111 2220 Desired_Joint 0.01475 0.0036875 Plan_Joint 0.0868905 0.0827102 Gen_Joint -0.14 0.37 -0.54 -0.04 0.18 -0.42 0.93 0.35 ActCable_Force 34.34 20.61 59.65 SCorCableForce 101.93 50.87 54.67 72.25 18.46 73.4 BCorCableForce 92.42 45.59 56 98.42 74.21 37.27 40.43 74 72.54 43.41 40.48 84.12 ExForceMeasured 5.11569 -12.2029 -0.222091 0.192285 0.104172 0.195268 ExForceSensed -0.190214 -0.000307993 
2025/5/27 12:1:6 timeTick112 2240 Desired_Joint 0.0178172 0.00445431 Plan_Joint 0.0873868 0.0827793 Gen_Joint -0.14 0.37 -0.54 -0.04 0.17 -0.43 0.93 0.35 ActCable_Force 34.34 20.61 59.65 SCorCableForce 101.93 50.87 54.67 72.25 18.46 73.4 BCorCableForce 92.42 45.59 56 98.42 74.21 37.27 40.43 74 72.54 43.41 40.48 84.12 ExForceMeasured 7.43224 -14.2686 0.605335 0.202976 0.0863252 0.165258 ExForceSensed -0.181859 0.00594947 
2025/5/27 12:1:6 timeTick113 2260 Desired_Joint 0.021168 0.005292 Plan_Joint 0.0879502 0.0828651 Gen_Joint -0.14 0.38 -0.53 -0.05 0.17 -0.43 0.93 0.35 ActCable_Force 34.61 20.64 59.67 SCorCableForce 102.26 51.26 56.7 74.33 18.39 73.4 BCorCableForce 92.72 46.22 56.59 98.66 74.11 37.17 40.19 76.11 72.43 43.43 40.55 84.03 ExForceMeasured 6.23702 -16.3506 -1.3943 0.208162 0.0771419 0.223335 ExForceSensed -0.114001 -0.0205341 
2025/5/27 12:1:6 timeTick114 2280 Desired_Joint 0.0248007 0.00620019 Plan_Joint 0.0884462 0.0830291 Gen_Joint -0.14 0.38 -0.53 -0.05 0.17 -0.43 0.93 0.35 ActCable_Force 34.61 20.64 59.67 SCorCableForce 102.26 51.26 56.7 74.33 18.39 73.4 BCorCableForce 92.72 46.22 56.59 98.66 74.11 37.17 40.19 76.11 72.43 43.43 40.55 84.03 ExForceMeasured 6.73528 -13.2487 -0.589003 0.202834 0.0856671 0.27933 ExForceSensed -0.0934866 -0.0219979 
2025/5/27 12:1:6 timeTick115 2300 Desired_Joint 0.028714 0.0071785 Plan_Joint 0.0890205 0.0832126 Gen_Joint -0.14 0.38 -0.53 -0.05 0.17 -0.43 0.93 0.35 ActCable_Force 34.21 20.23 59.13 SCorCableForce 102.08 51.08 55.05 72.76 18.62 73.56 BCorCableForce 92.21 45.86 56.37 98.39 73.96 37.09 40.21 74.31 72.04 43.22 40.39 84.03 ExForceMeasured 8.96659 -15.3062 -0.595326 0.202926 0.0853746 0.334805 ExForceSensed -0.130917 -0.0713404 
2025/5/27 12:1:6 timeTick116 2320 Desired_Joint 0.0329062 0.00822656 Plan_Joint 0.0896786 0.0834171 Gen_Joint -0.14 0.38 -0.53 -0.05 0.17 -0.43 0.93 0.35 ActCable_Force 34.21 20.23 59.13 SCorCableForce 102.08 51.08 55.05 72.76 18.62 73.56 BCorCableForce 92.21 45.86 56.37 98.39 73.96 37.09 40.21 74.31 72.04 43.22 40.39 84.03 ExForceMeasured 7.42227 -16.3339 0.215076 0.198105 0.0592193 0.16549 ExForceSensed -0.155867 -0.106638 
2025/5/27 12:1:6 timeTick117 2340 Desired_Joint 0.037376 0.009344 Plan_Joint 0.0896787 0.0826296 Gen_Joint -0.14 0.38 -0.53 -0.05 0.18 -0.44 0.93 0.35 ActCable_Force 34.43 20.23 59.06 SCorCableForce 102.34 51.15 54.98 72.73 18.73 73.58 BCorCableForce 92.32 46.05 56.47 98.48 74.11 37.21 40.29 74.3 72.32 43.61 40.71 84.08 ExForceMeasured 5.22856 -14.2813 -1.01162 0.213011 0.104926 0.110339 ExForceSensed -0.118799 -0.0966839 
2025/5/27 12:1:6 timeTick118 2360 Desired_Joint 0.0421218 0.0105304 Plan_Joint 0.0896787 0.0817472 Gen_Joint -0.14 0.38 -0.53 -0.05 0.18 -0.44 0.93 0.35 ActCable_Force 34.43 20.23 59.06 SCorCableForce 102.34 51.15 54.98 72.73 18.73 73.58 BCorCableForce 92.32 46.05 56.47 98.48 74.11 37.21 40.29 74.3 72.32 43.61 40.71 84.08 ExForceMeasured 5.60689 -13.2458 -0.183969 0.192686 0.0676614 0.25161 ExForceSensed -0.118799 -0.0966839 
2025/5/27 12:1:6 timeTick119 2380 Desired_Joint 0.047142 0.0117855 Plan_Joint 0.0896696 0.0828199 Gen_Joint -0.15 0.38 -0.54 -0.04 0.18 -0.44 0.93 0.35 ActCable_Force 34.57 20.3 59.11 SCorCableForce 102.23 51.09 54.64 72.22 18.78 73.63 BCorCableForce 92.57 46.29 56.79 98.29 74.28 37.45 40.4 73.93 72.07 43.41 40.48 84.08 ExForceMeasured 2.90557 -16.3721 -0.578563 0.218646 0.0777819 0.140072 ExForceSensed -0.101757 -0.0633747 
2025/5/27 12:1:6 timeTick120 2400 Desired_Joint 0.0524352 0.0131088 Plan_Joint 0.0896595 0.0840017 Gen_Joint -0.15 0.38 -0.54 -0.04 0.18 -0.44 0.93 0.35 ActCable_Force 34.57 20.3 59.11 SCorCableForce 102.23 51.09 54.64 72.22 18.78 73.63 BCorCableForce 92.57 46.29 56.79 98.29 74.28 37.45 40.4 73.93 72.07 43.41 40.48 84.08 ExForceMeasured 5.11753 -12.2214 -0.189236 0.207923 0.09524 0.195088 ExForceSensed -0.0683047 -0.00150753 
2025/5/27 12:1:6 timeTick121 2420 Desired_Joint 0.058 0.0145 Plan_Joint 0.0896484 0.085298 Gen_Joint -0.15 0.38 -0.54 -0.04 0.18 -0.44 0.93 0.35 ActCable_Force 34.82 20.27 59.04 SCorCableForce 102.07 50.87 55.01 72.68 18.62 73.45 BCorCableForce 92.05 45.99 56.53 98 74.39 37.39 40.43 74.37 72.34 43.79 41 83.92 ExForceMeasured 2.90841 -14.3034 -0.588701 0.218371 0.0958004 0.139963 ExForceSensed -0.0135308 0.0682242 
2025/5/27 12:1:6 timeTick122 2440 Desired_Joint 0.0638347 0.0159587 Plan_Joint 0.0896802 0.0866733 Gen_Joint -0.15 0.38 -0.54 -0.04 0.18 -0.43 0.93 0.35 ActCable_Force 34.82 20.27 59.04 SCorCableForce 102.07 50.87 55.01 72.68 18.62 73.45 BCorCableForce 92.05 45.99 56.53 98 74.39 37.39 40.43 74.37 72.34 43.79 41 83.92 ExForceMeasured 6.84237 -15.3163 -0.991484 0.213236 0.0863326 0.194395 ExForceSensed 0.0412144 0.105837 
2025/5/27 12:1:6 timeTick123 2460 Desired_Joint 0.069938 0.0174845 Plan_Joint 0.0897152 0.0881741 Gen_Joint -0.15 0.38 -0.54 -0.04 0.18 -0.43 0.93 0.35 ActCable_Force 34.86 20.07 58.97 SCorCableForce 102.43 50.88 55.14 72.82 18.46 73.2 BCorCableForce 91.91 46.23 56.83 98.11 74.37 37.29 40.25 74.48 72.2 43.97 41.12 83.53 ExForceMeasured 7.94177 -13.2562 -0.560687 0.218436 0.0770313 0.221689 ExForceSensed 0.0439682 0.0855087 
2025/5/27 12:1:6 timeTick124 2480 Desired_Joint 0.0763082 0.0190771 Plan_Joint 0.089715 0.0896804 Gen_Joint -0.14 0.39 -0.54 -0.05 0.18 -0.43 0.93 0.35 ActCable_Force 34.86 20.07 58.97 SCorCableForce 102.43 50.88 55.14 72.82 18.46 73.2 BCorCableForce 91.91 46.23 56.83 98.11 74.37 37.29 40.25 74.48 72.2 43.97 41.12 83.53 ExForceMeasured 7.44439 -16.3252 0.176061 0.197769 0.0954354 0.165616 ExForceSensed 0.0479696 0.0611012 
2025/5/27 12:1:6 timeTick125 2500 Desired_Joint 0.082944 0.020736 Plan_Joint 0.0897149 0.0913194 Gen_Joint -0.14 0.39 -0.54 -0.05 0.18 -0.43 0.93 0.35 ActCable_Force 34.75 19.89 58.79 SCorCableForce 102.74 50.76 55.82 73.52 18.42 73.61 BCorCableForce 91.94 46.2 56.74 98.27 74.39 36.89 39.76 75.36 71.52 43.25 40.46 83.71 ExForceMeasured 3.91715 -17.3634 -0.219168 0.192716 0.0855665 0.30732 ExForceSensed 0.0479696 0.0611012 
2025/5/27 12:1:6 timeTick126 2520 Desired_Joint 0.0898438 0.0224609 Plan_Joint 0.0897147 0.0930964 Gen_Joint -0.14 0.39 -0.54 -0.05 0.18 -0.43 0.93 0.35 ActCable_Force 34.75 19.89 58.79 SCorCableForce 102.74 50.76 55.82 73.52 18.42 73.61 BCorCableForce 91.94 46.2 56.74 98.27 74.39 36.89 39.76 75.36 71.52 43.25 40.46 83.71 ExForceMeasured 9.0468 -15.2847 -0.614735 0.187426 0.0766855 0.249809 ExForceSensed -0.00438473 0.0282833 
2025/5/27 12:1:6 timeTick127 2540 Desired_Joint 0.097006 0.0242515 Plan_Joint 0.0905354 0.0918232 Gen_Joint -0.14 0.39 -0.54 -0.05 0.17 -0.42 0.93 0.35 ActCable_Force 35.16 20.48 59.31 SCorCableForce 102.74 50.27 54.87 72.58 18.1 73.29 BCorCableForce 92.08 46.07 56.92 99.23 74.22 37.04 38.37 74.37 71.75 43.54 41.09 83.3 ExForceMeasured 6.13068 -14.2639 -2.23202 0.181985 0.0854302 0.308764 ExForceSensed -0.0246742 0.00813258 
2025/5/27 12:1:6 timeTick128 2560 Desired_Joint 0.104429 0.0261073 Plan_Joint 0.0914188 0.090447 Gen_Joint -0.14 0.39 -0.54 -0.05 0.17 -0.42 0.93 0.35 ActCable_Force 35.16 20.48 59.31 SCorCableForce 102.74 50.27 54.87 72.58 18.1 73.29 BCorCableForce 92.08 46.07 56.92 99.23 74.22 37.04 38.37 74.37 71.75 43.54 41.09 83.3 ExForceMeasured 5.01729 -12.2254 -0.583573 0.202807 0.0856653 0.280324 ExForceSensed -0.0674368 -0.0558758 
2025/5/27 12:1:6 timeTick129 2580 Desired_Joint 0.112112 0.028028 Plan_Joint 0.093401 0.0910475 Gen_Joint -0.14 0.4 -0.52 -0.05 0.17 -0.42 0.93 0.35 ActCable_Force 34.91 19.98 59.74 SCorCableForce 103.31 50.76 56.04 74 18.51 73.97 BCorCableForce 91.81 45.93 55.71 97.78 74.14 36.86 38.86 76.05 71.73 43.41 40.98 83.8 ExForceMeasured 4.40346 -13.2634 -2.17423 0.197765 0.0583885 0.309515 ExForceSensed -0.0730213 -0.103763 
2025/5/27 12:1:6 timeTick130 2600 Desired_Joint 0.120053 0.0300132 Plan_Joint 0.0955421 0.0916878 Gen_Joint -0.14 0.4 -0.52 -0.05 0.17 -0.42 0.93 0.35 ActCable_Force 34.91 19.98 59.74 SCorCableForce 103.31 50.76 56.04 74 18.51 73.97 BCorCableForce 91.81 45.93 55.71 97.78 74.14 36.86 38.86 76.05 71.73 43.41 40.98 83.8 ExForceMeasured 4.44805 -15.326 -1.42182 0.207828 0.112869 0.309567 ExForceSensed -0.0888372 -0.139596 
2025/5/27 12:1:6 timeTick131 2620 Desired_Joint 0.12825 0.0320625 Plan_Joint 0.0978471 0.092369 Gen_Joint -0.14 0.4 -0.52 -0.05 0.17 -0.42 0.93 0.35 ActCable_Force 34.73 19.82 59.79 SCorCableForce 102.44 50.67 54.02 71.62 18.17 74.17 BCorCableForce 92.26 45.56 56.31 98.03 74.3 37.01 38.95 73.9 72.45 43.77 41.25 83.87 ExForceMeasured 5.63404 -13.2668 0.630174 0.218448 0.0950124 0.251248 ExForceSensed -0.106723 -0.231198 
2025/5/27 12:1:6 timeTick132 2640 Desired_Joint 0.136702 0.0341756 Plan_Joint 0.100401 0.0930925 Gen_Joint -0.14 0.4 -0.52 -0.05 0.17 -0.44 0.93 0.35 ActCable_Force 34.73 19.82 59.79 SCorCableForce 102.44 50.67 54.02 71.62 18.17 74.17 BCorCableForce 92.26 45.56 56.31 98.03 74.3 37.01 38.95 73.9 72.45 43.77 41.25 83.87 ExForceMeasured 8.53028 -12.2157 0.248684 0.213353 0.0680252 0.192681 ExForceSensed -0.120318 -0.328318 
2025/5/27 12:1:6 timeTick133 2660 Desired_Joint 0.145408 0.036352 Plan_Joint 0.103129 0.0938595 Gen_Joint -0.14 0.4 -0.52 -0.05 0.17 -0.44 0.93 0.35 ActCable_Force 34.37 19.91 60.38 SCorCableForce 102.92 50.87 55.44 73.07 18.01 74.02 BCorCableForce 92.69 45.69 55.49 98.66 74.82 36.65 40.31 75.29 72.7 43.52 41.07 83.96 ExForceMeasured 6.15817 -16.3649 -0.58744 0.218484 0.0948296 0.308202 ExForceSensed -0.085281 -0.420725 
2025/5/27 12:1:6 timeTick134 2680 Desired_Joint 0.154366 0.0385914 Plan_Joint 0.103289 0.0971204 Gen_Joint -0.14 0.38 -0.54 -0.05 0.17 -0.44 0.93 0.35 ActCable_Force 34.37 19.91 60.38 SCorCableForce 102.92 50.87 55.44 73.07 18.01 74.02 BCorCableForce 92.69 45.69 55.49 98.66 74.82 36.65 40.31 75.29 72.7 43.52 41.07 83.96 ExForceMeasured 3.9014 -16.3591 0.222629 0.198188 0.0588181 0.252762 ExForceSensed -0.085281 -0.420725 
2025/5/27 12:1:6 timeTick135 2700 Desired_Joint 0.163574 0.0408935 Plan_Joint 0.103458 0.100569 Gen_Joint -0.14 0.38 -0.54 -0.05 0.17 -0.44 0.93 0.35 ActCable_Force 34.32 19.5 60.49 SCorCableForce 102.82 50.58 54.59 72.19 17.98 74.4 BCorCableForce 92.54 44.92 56.15 99.84 74.94 37.2 39.52 74.52 72.54 42.73 40.21 84.48 ExForceMeasured 5.63662 -13.2662 -0.577179 0.218312 0.0950344 0.251562 ExForceSensed -0.00167977 -0.487524 
2025/5/27 12:1:6 timeTick136 2720 Desired_Joint 0.173031 0.0432578 Plan_Joint 0.103637 0.104211 Gen_Joint -0.14 0.38 -0.54 -0.05 0.17 -0.44 0.93 0.35 ActCable_Force 34.32 19.5 60.49 SCorCableForce 102.82 50.58 54.59 72.19 17.98 74.4 BCorCableForce 92.54 44.92 56.15 99.84 74.94 37.2 39.52 74.52 72.54 42.73 40.21 84.48 ExForceMeasured 8.45903 -14.2827 -0.981484 0.213186 0.0857576 0.278343 ExForceSensed 0.0703669 -0.455094 
2025/5/27 12:1:7 timeTick137 2740 Desired_Joint 0.182736 0.045684 Plan_Joint 0.107291 0.105105 Gen_Joint -0.14 0.38 -0.54 -0.05 0.18 -0.42 0.94 0.36 ActCable_Force 34.73 19.48 61.21 SCorCableForce 102.52 50.43 54.52 72.48 17.42 74.4 BCorCableForce 93.22 45.17 55.44 99.44 74.69 36.63 39.67 74.6 73.15 42.45 40.12 84.53 ExForceMeasured 5.12425 -16.3473 0.598981 0.203128 0.0863098 0.19524 ExForceSensed 0.0658562 -0.444324 
2025/5/27 12:1:7 timeTick138 2760 Desired_Joint 0.192687 0.0481717 Plan_Joint 0.111145 0.106049 Gen_Joint -0.14 0.38 -0.54 -0.05 0.18 -0.42 0.94 0.36 ActCable_Force 34.73 19.48 61.21 SCorCableForce 102.52 50.43 54.52 72.48 17.42 74.4 BCorCableForce 93.22 45.17 55.44 99.44 74.69 36.63 39.67 74.6 73.15 42.45 40.12 84.53 ExForceMeasured 10.2533 -15.2922 -0.586418 0.203027 0.0680498 0.192168 ExForceSensed 0.0403722 -0.331506 
2025/5/27 12:1:7 timeTick139 2780 Desired_Joint 0.202882 0.0507205 Plan_Joint 0.114983 0.106904 Gen_Joint -0.13 0.4 -0.53 -0.04 0.18 -0.42 0.94 0.36 ActCable_Force 34.3 18.66 61.24 SCorCableForce 103.19 49.91 55.67 73.04 17.42 75.19 BCorCableForce 93.62 44.23 53.48 100.24 75.02 36.29 38.52 76.12 73.58 41.89 39.28 85.37 ExForceMeasured 8.46358 -14.2866 0.626266 0.218468 0.0948232 0.277906 ExForceSensed -0.0113311 -0.212401 
2025/5/27 12:1:7 timeTick140 2800 Desired_Joint 0.21332 0.0533301 Plan_Joint 0.119029 0.10781 Gen_Joint -0.13 0.4 -0.53 -0.04 0.18 -0.42 0.94 0.36 ActCable_Force 34.3 18.66 61.24 SCorCableForce 103.19 49.91 55.67 73.04 17.42 75.19 BCorCableForce 93.62 44.23 53.48 100.24 75.02 36.29 38.52 76.12 73.58 41.89 39.28 85.37 ExForceMeasured 6.24625 -14.3042 0.23617 0.228808 0.095294 0.222609 ExForceSensed -0.131401 -0.150434 
2025/5/27 12:1:7 timeTick141 2820 Desired_Joint 0.224 0.056 Plan_Joint 0.123289 0.10877 Gen_Joint -0.13 0.4 -0.53 -0.04 0.18 -0.42 0.94 0.36 ActCable_Force 34.3 18.66 61.8 SCorCableForce 104.09 48.85 55.17 71.85 17.19 75.28 BCorCableForce 93.96 43.87 53.56 100.33 75.35 35.94 38.9 75.5 74.51 41.87 39.3 85.77 ExForceMeasured 5.55777 -15.3041 -1.45315 0.192181 0.12161 0.337398 ExForceSensed -0.137236 -0.145684 
2025/5/27 12:1:7 timeTick142 2840 Desired_Joint 0.23492 0.0587299 Plan_Joint 0.127747 0.109725 Gen_Joint -0.13 0.4 -0.53 -0.04 0.19 -0.42 0.95 0.37 ActCable_Force 34.3 18.66 61.8 SCorCableForce 104.09 48.85 55.17 71.85 17.19 75.28 BCorCableForce 93.96 43.87 53.56 100.33 75.35 35.94 38.9 75.5 74.51 41.87 39.3 85.77 ExForceMeasured 4.5339 -17.3694 -0.243244 0.192571 0.104248 0.224428 ExForceSensed -0.125832 -0.151728 
2025/5/27 12:1:7 timeTick143 2860 Desired_Joint 0.246078 0.0615195 Plan_Joint 0.132428 0.110735 Gen_Joint -0.13 0.4 -0.53 -0.04 0.19 -0.42 0.95 0.37 ActCable_Force 34.59 18.94 62.6 SCorCableForce 105 48.4 56.27 73.36 17.19 75.81 BCorCableForce 94.38 43.81 52.65 101.17 76.12 35.91 38.49 77.07 75.4 42.05 39.53 86.57 ExForceMeasured 7.95209 -15.2945 -1.02282 0.19759 0.0950734 0.222226 ExForceSensed -0.128517 -0.144673 
2025/5/27 12:1:7 timeTick144 2880 Desired_Joint 0.257473 0.0643683 Plan_Joint 0.137038 0.111682 Gen_Joint -0.13 0.43 -0.52 -0.02 0.19 -0.42 0.95 0.37 ActCable_Force 34.59 18.94 62.6 SCorCableForce 105 48.4 56.27 73.36 17.19 75.81 BCorCableForce 94.38 43.81 52.65 101.17 76.12 35.91 38.49 77.07 75.4 42.05 39.53 86.57 ExForceMeasured 4.94529 -14.3113 -0.573533 0.218414 0.0944439 0.365492 ExForceSensed -0.128517 -0.144673 
2025/5/27 12:1:7 timeTick145 2900 Desired_Joint 0.269104 0.067276 Plan_Joint 0.14188 0.112688 Gen_Joint -0.13 0.43 -0.52 -0.02 0.19 -0.42 0.95 0.37 ActCable_Force 34.77 18.48 62.94 SCorCableForce 105.12 48.24 54.46 71.19 16.49 76.76 BCorCableForce 94.56 43.12 51.87 101.37 76.21 35 39.02 75.79 75.06 41.19 38.72 86.77 ExForceMeasured 4.42938 -13.2777 0.634712 0.218486 0.0947163 0.30871 ExForceSensed -0.139074 -0.157821 
2025/5/27 12:1:7 timeTick146 2920 Desired_Joint 0.280969 0.0702422 Plan_Joint 0.146959 0.113753 Gen_Joint -0.13 0.43 -0.52 -0.02 0.19 -0.42 0.95 0.37 ActCable_Force 34.77 18.48 62.94 SCorCableForce 105.12 48.24 54.46 71.19 16.49 76.76 BCorCableForce 94.56 43.12 51.87 101.37 76.21 35 39.02 75.79 75.06 41.19 38.72 86.77 ExForceMeasured 8.46725 -16.3471 -0.990853 0.213293 0.0858472 0.278515 ExForceSensed -0.138979 -0.155659 
2025/5/27 12:1:7 timeTick147 2940 Desired_Joint 0.293066 0.0732665 Plan_Joint 0.15212 0.114818 Gen_Joint -0.13 0.43 -0.52 -0.02 0.2 -0.4 0.99 0.38 ActCable_Force 35.2 18.37 63.39 SCorCableForce 105.03 47.92 54.61 71.61 15.52 77.5 BCorCableForce 95.2 43.26 52.57 101.66 76.99 35.35 38.32 76.62 75.31 40.98 38.35 86.73 ExForceMeasured 5.75452 -17.3978 -2.19638 0.228686 0.0958114 0.167113 ExForceSensed -0.133345 -0.138302 
2025/5/27 12:1:7 timeTick148 2960 Desired_Joint 0.305394 0.0763486 Plan_Joint 0.157527 0.115945 Gen_Joint -0.13 0.43 -0.52 -0.02 0.2 -0.4 0.99 0.38 ActCable_Force 35.2 18.37 63.39 SCorCableForce 105.03 47.92 54.61 71.61 15.52 77.5 BCorCableForce 95.2 43.26 52.57 101.66 76.99 35.35 38.32 76.62 75.31 40.98 38.35 86.73 ExForceMeasured 6.13338 -12.2259 1.0257 0.208081 0.0945398 0.307538 ExForceSensed -0.146322 -0.140879 
2025/5/27 12:1:7 timeTick149 2980 Desired_Joint 0.317952 0.079488 Plan_Joint 0.162886 0.116974 Gen_Joint -0.11 0.46 -0.51 -0.02 0.2 -0.4 0.99 0.38 ActCable_Force 34.95 17.87 63.37 SCorCableForce 106 47.07 54.77 71.67 15.15 78.12 BCorCableForce 94.92 42.79 51.33 101.98 77.78 34.99 38.46 77.35 75.26 40.57 37.97 86.88 ExForceMeasured 7.86291 -13.2705 0.246169 0.228757 0.094719 0.306557 ExForceSensed -0.134521 -0.130601 
2025/5/27 12:1:7 timeTick150 3000 Desired_Joint 0.330738 0.0826844 Plan_Joint 0.168501 0.118068 Gen_Joint -0.11 0.46 -0.51 -0.02 0.2 -0.4 0.99 0.38 ActCable_Force 34.95 17.87 63.37 SCorCableForce 106 47.07 54.77 71.67 15.15 78.12 BCorCableForce 94.92 42.79 51.33 101.98 77.78 34.99 38.46 77.35 75.26 40.57 37.97 86.88 ExForceMeasured 4.52433 -15.3123 -1.02132 0.197642 0.0951595 0.224385 ExForceSensed -0.122221 -0.120278 
2025/5/27 12:1:7 timeTick151 3020 Desired_Joint 0.34375 0.0859375 Plan_Joint 0.174375 0.119227 Gen_Joint -0.11 0.46 -0.51 -0.02 0.2 -0.4 0.99 0.38 ActCable_Force 35.34 18.26 63.91 SCorCableForce 107.29 45.93 54.76 71.85 15.18 78.55 BCorCableForce 95.76 43.18 52.62 102.67 78.35 34.82 37.8 77.69 75.78 40.87 38.22 87.34 ExForceMeasured 7.95847 -15.3169 0.61779 0.218511 0.0952071 0.22161 ExForceSensed -0.124309 -0.128081 
2025/5/27 12:1:7 timeTick152 3040 Desired_Joint 0.356987 0.0892468 Plan_Joint 0.180435 0.120452 Gen_Joint -0.11 0.46 -0.51 -0.02 0.2 -0.39 1.01 0.38 ActCable_Force 35.34 18.26 63.91 SCorCableForce 107.29 45.93 54.76 71.85 15.18 78.55 BCorCableForce 95.76 43.18 52.62 102.67 78.35 34.82 37.8 77.69 75.78 40.87 38.22 87.34 ExForceMeasured 6.81807 -13.2266 -1.81576 0.187198 0.077 0.194648 ExForceSensed -0.127595 -0.13751 
2025/5/27 12:1:7 timeTick153 3060 Desired_Joint 0.370448 0.092612 Plan_Joint 0.186763 0.121744 Gen_Joint -0.11 0.46 -0.51 -0.02 0.2 -0.39 1.01 0.38 ActCable_Force 35.48 18.23 64 SCorCableForce 108.48 45.45 54.41 71.65 14.9 78.82 BCorCableForce 95.86 42.82 52.29 103.38 78.88 34.82 37.2 77.62 76.21 41.21 38.56 87.34 ExForceMeasured 6.22623 -14.2867 -0.177575 0.208191 0.0770304 0.222849 ExForceSensed -0.133491 -0.154016 
2025/5/27 12:1:7 timeTick154 3080 Desired_Joint 0.384131 0.0960327 Plan_Joint 0.192925 0.123044 Gen_Joint -0.11 0.5 -0.49 -0.01 0.2 -0.39 1.01 0.38 ActCable_Force 35.48 18.23 64 SCorCableForce 108.48 45.45 54.41 71.65 14.9 78.82 BCorCableForce 95.86 42.82 52.29 103.38 78.88 34.82 37.2 77.62 76.21 41.21 38.56 87.34 ExForceMeasured 7.44093 -16.3586 -0.158627 0.2239 0.0684842 0.165379 ExForceSensed -0.133491 -0.154016 
2025/5/27 12:1:7 timeTick155 3100 Desired_Joint 0.398034 0.0995085 Plan_Joint 0.199365 0.124414 Gen_Joint -0.11 0.5 -0.49 -0.01 0.2 -0.39 1.01 0.38 ActCable_Force 35.54 17.71 64.14 SCorCableForce 108.81 45.56 55.86 73.09 14.47 80.13 BCorCableForce 95.44 42.55 52.02 102.56 79.23 33.94 36.33 79.88 75.83 40.57 37.79 87.75 ExForceMeasured 6.83022 -13.2597 -0.56221 0.218443 0.0772224 0.194038 ExForceSensed -0.137706 -0.173657 
2025/5/27 12:1:7 timeTick156 3120 Desired_Joint 0.412156 0.103039 Plan_Joint 0.206088 0.125855 Gen_Joint -0.11 0.5 -0.49 -0.01 0.2 -0.39 1.01 0.38 ActCable_Force 35.54 17.71 64.14 SCorCableForce 108.81 45.56 55.86 73.09 14.47 80.13 BCorCableForce 95.44 42.55 52.02 102.56 79.23 33.94 36.33 79.88 75.83 40.57 37.79 87.75 ExForceMeasured 9.58911 -16.3583 0.23137 0.228892 0.0948104 0.305735 ExForceSensed -0.138063 -0.171406 
2025/5/27 12:1:7 timeTick157 3140 Desired_Joint 0.426496 0.106624 Plan_Joint 0.212937 0.127307 Gen_Joint -0.11 0.5 -0.49 -0.01 0.21 -0.37 1.05 0.39 ActCable_Force 36.25 17.92 64.66 SCorCableForce 107.96 45.13 54.55 71.68 13.82 80.86 BCorCableForce 95.8 42.37 51.75 102.19 79.5 34.15 35.9 79.04 75.87 40.37 37.67 87.61 ExForceMeasured 7.2729 -16.3726 0.234385 0.228937 0.0947054 0.335546 ExForceSensed -0.132065 -0.165358 
2025/5/27 12:1:7 timeTick158 3160 Desired_Joint 0.441052 0.110263 Plan_Joint 0.220078 0.128832 Gen_Joint -0.11 0.5 -0.49 -0.01 0.21 -0.37 1.05 0.39 ActCable_Force 36.25 17.92 64.66 SCorCableForce 107.96 45.13 54.55 71.68 13.82 80.86 BCorCableForce 95.8 42.37 51.75 102.19 79.5 34.15 35.9 79.04 75.87 40.37 37.67 87.61 ExForceMeasured 6.17106 -16.379 -0.574093 0.233955 0.104006 0.308086 ExForceSensed -0.119081 -0.159431 
2025/5/27 12:1:7 timeTick159 3180 Desired_Joint 0.455822 0.113955 Plan_Joint 0.227093 0.130371 Gen_Joint -0.11 0.53 -0.46 -0 0.21 -0.37 1.05 0.39 ActCable_Force 36.65 18.32 65.16 SCorCableForce 108.44 44.39 54.98 71.89 13.63 80.99 BCorCableForce 95.77 42.19 52.08 102.61 79.82 33.73 37.38 79.86 75.83 40.21 37.42 87.7 ExForceMeasured 4.55725 -15.3439 -0.594231 0.23373 0.122599 0.224029 ExForceSensed -0.111587 -0.132528 
2025/5/27 12:1:7 timeTick160 3200 Desired_Joint 0.470805 0.117701 Plan_Joint 0.234408 0.131985 Gen_Joint -0.11 0.53 -0.46 -0 0.21 -0.37 1.05 0.39 ActCable_Force 36.65 18.32 65.16 SCorCableForce 108.44 44.39 54.98 71.89 13.63 80.99 BCorCableForce 95.77 42.19 52.08 102.61 79.82 33.73 37.38 79.86 75.83 40.21 37.42 87.7 ExForceMeasured 6.75062 -15.3165 -0.197975 0.208087 0.0948441 0.27938 ExForceSensed -0.104522 -0.104454 
2025/5/27 12:1:7 timeTick161 3220 Desired_Joint 0.486 0.1215 Plan_Joint 0.242027 0.133674 Gen_Joint -0.11 0.53 -0.46 -0 0.21 -0.37 1.05 0.39 ActCable_Force 36.9 18.71 65.75 SCorCableForce 108.78 43.97 53.68 70.73 13.88 81.11 BCorCableForce 95.77 42.49 49.98 104.06 80.55 34.36 36.18 78.7 76.15 40.3 37.49 88.2 ExForceMeasured 4.43699 -13.3068 0.280516 0.244449 0.0858732 0.308536 ExForceSensed -0.106844 -0.0966695 
2025/5/27 12:1:7 timeTick162 3240 Desired_Joint 0.501405 0.125351 Plan_Joint 0.249754 0.135421 Gen_Joint -0.11 0.53 -0.46 -0 0.21 -0.34 1.09 0.4 ActCable_Force 36.9 18.71 65.75 SCorCableForce 108.78 43.97 53.68 70.73 13.88 81.11 BCorCableForce 95.77 42.49 49.98 104.06 80.55 34.36 36.18 78.7 76.15 40.3 37.49 88.2 ExForceMeasured 5.66649 -13.2727 1.81186 0.233718 0.140383 0.250943 ExForceSensed -0.109933 -0.0906216 
2025/5/27 12:1:7 timeTick163 3260 Desired_Joint 0.517018 0.129254 Plan_Joint 0.257794 0.137246 Gen_Joint -0.11 0.53 -0.46 -0 0.21 -0.34 1.09 0.4 ActCable_Force 36.47 18.35 65.34 SCorCableForce 109.19 43.52 54.11 71.07 13.79 80.79 BCorCableForce 96.06 41.79 49.76 102.58 80.65 34.19 37.11 78.79 76.71 40.62 37.65 88.11 ExForceMeasured 7.97822 -17.4026 -0.16568 0.239267 0.0954742 0.221794 ExForceSensed -0.117642 -0.100123 
2025/5/27 12:1:7 timeTick164 3280 Desired_Joint 0.532838 0.13321 Plan_Joint 0.265589 0.13893 Gen_Joint -0.09 0.57 -0.42 0.01 0.21 -0.34 1.09 0.4 ActCable_Force 36.47 18.35 65.34 SCorCableForce 109.19 43.52 54.11 71.07 13.79 80.79 BCorCableForce 96.06 41.79 49.76 102.58 80.65 34.19 37.11 78.79 76.71 40.62 37.65 88.11 ExForceMeasured 6.76067 -17.3994 -0.174489 0.223834 0.0860018 0.279372 ExForceSensed -0.117642 -0.100123 
2025/5/27 12:1:7 timeTick165 3300 Desired_Joint 0.548864 0.137216 Plan_Joint 0.273705 0.140694 Gen_Joint -0.09 0.57 -0.42 0.01 0.21 -0.34 1.09 0.4 ActCable_Force 36.43 18.12 65.61 SCorCableForce 108.74 43.44 54.58 71.94 13.66 81.17 BCorCableForce 96.61 42.73 52.42 102.73 80.58 33.79 35.66 79.41 76.89 40.3 37.61 88.43 ExForceMeasured 6.16 -16.3833 -0.554586 0.234123 0.0858977 0.308023 ExForceSensed -0.12017 -0.115801 
2025/5/27 12:1:7 timeTick166 3320 Desired_Joint 0.565094 0.141273 Plan_Joint 0.282146 0.142539 Gen_Joint -0.09 0.57 -0.42 0.01 0.21 -0.34 1.09 0.4 ActCable_Force 36.43 18.12 65.61 SCorCableForce 108.74 43.44 54.58 71.94 13.66 81.17 BCorCableForce 96.61 42.73 52.42 102.73 80.58 33.79 35.66 79.41 76.89 40.3 37.61 88.43 ExForceMeasured 6.76535 -15.3491 -0.151773 0.239197 0.0950885 0.279083 ExForceSensed -0.120371 -0.128916 
2025/5/27 12:1:7 timeTick167 3340 Desired_Joint 0.581526 0.145381 Plan_Joint 0.290595 0.144426 Gen_Joint -0.09 0.57 -0.42 0.01 0.22 -0.29 1.15 0.4 ActCable_Force 36.43 18.26 65.75 SCorCableForce 108.6 43.45 55.14 71.83 13.36 80.86 BCorCableForce 96.8 41.87 51.48 103.2 80.51 33.55 36.3 79.76 77.1 40.3 37.4 88.24 ExForceMeasured 5.75478 -15.3296 -0.999167 0.228546 0.113808 0.16669 ExForceSensed -0.115153 -0.14356 
2025/5/27 12:1:7 timeTick168 3360 Desired_Joint 0.598159 0.14954 Plan_Joint 0.299376 0.146396 Gen_Joint -0.09 0.57 -0.42 0.01 0.22 -0.29 1.15 0.4 ActCable_Force 36.43 18.26 65.75 SCorCableForce 108.6 43.45 55.14 71.83 13.36 80.86 BCorCableForce 96.8 41.87 51.48 103.2 80.51 33.55 36.3 79.76 77.1 40.3 37.4 88.24 ExForceMeasured 7.4896 -16.3592 -1.41115 0.238729 0.132007 0.165765 ExForceSensed -0.11348 -0.170358 
2025/5/27 12:1:7 timeTick169 3380 Desired_Joint 0.614992 0.153748 Plan_Joint 0.307714 0.148371 Gen_Joint -0.08 0.63 -0.37 0.01 0.22 -0.29 1.15 0.4 ActCable_Force 36.59 18.51 66.11 SCorCableForce 108.93 43.45 54.7 71.77 13.77 81.02 BCorCableForce 96.92 41.84 51.44 104.42 80.54 33.84 36.06 79.4 76.73 39.69 36.84 88.65 ExForceMeasured 4.45871 -17.4206 0.629322 0.234171 0.104072 0.308937 ExForceSensed -0.114842 -0.148161 
2025/5/27 12:1:7 timeTick170 3400 Desired_Joint 0.632023 0.158006 Plan_Joint 0.316393 0.15043 Gen_Joint -0.08 0.63 -0.37 0.01 0.22 -0.29 1.15 0.4 ActCable_Force 36.59 18.51 66.11 SCorCableForce 108.93 43.45 54.7 71.77 13.77 81.02 BCorCableForce 96.92 41.84 51.44 104.42 80.54 33.84 36.06 79.4 76.73 39.69 36.84 88.65 ExForceMeasured 6.86301 -17.3692 -0.232912 0.207997 0.113529 0.194501 ExForceSensed -0.116367 -0.121813 
2025/5/27 12:1:7 timeTick171 3420 Desired_Joint 0.64925 0.162313 Plan_Joint 0.325416 0.152576 Gen_Joint -0.08 0.63 -0.37 0.01 0.22 -0.29 1.15 0.4 ActCable_Force 36.43 18.71 66.36 SCorCableForce 109.13 43.3 55.52 72.61 14.2 80.52 BCorCableForce 96.92 41.72 52.26 104.04 80.83 33.82 36.92 80.19 76.92 39.53 36.88 88.97 ExForceMeasured 7.94631 -13.2602 1.04706 0.223718 0.0860969 0.221252 ExForceSensed -0.124719 -0.0913489 
2025/5/27 12:1:7 timeTick172 3440 Desired_Joint 0.666672 0.166668 Plan_Joint 0.334527 0.154728 Gen_Joint -0.08 0.63 -0.37 0.01 0.23 -0.24 1.18 0.42 ActCable_Force 36.43 18.71 66.36 SCorCableForce 109.13 43.3 55.52 72.61 14.2 80.52 BCorCableForce 96.92 41.72 52.26 104.04 80.83 33.82 36.92 80.19 76.92 39.53 36.88 88.97 ExForceMeasured 7.77089 -15.339 -0.157536 0.223748 0.085234 0.391964 ExForceSensed -0.13363 -0.0604938 
2025/5/27 12:1:7 timeTick173 3460 Desired_Joint 0.684288 0.171072 Plan_Joint 0.34399 0.156969 Gen_Joint -0.08 0.63 -0.37 0.01 0.23 -0.24 1.18 0.42 ActCable_Force 36.16 18.71 66.45 SCorCableForce 109.44 43.14 53.35 70.34 14.4 79.79 BCorCableForce 97.48 41.79 51.45 103.86 80.79 33.81 36.5 77.68 77.57 39.85 36.99 89.01 ExForceMeasured 9.06967 -13.2335 -0.211128 0.207767 0.112968 0.24946 ExForceSensed -0.13677 -0.0417217 
2025/5/27 12:1:7 timeTick174 3480 Desired_Joint 0.702096 0.175524 Plan_Joint 0.35311 0.159239 Gen_Joint -0.08 0.68 -0.32 0.02 0.23 -0.24 1.18 0.42 ActCable_Force 36.16 18.71 66.45 SCorCableForce 109.44 43.14 53.35 70.34 14.4 79.79 BCorCableForce 97.48 41.79 51.45 103.86 80.79 33.81 36.5 77.68 77.57 39.85 36.99 89.01 ExForceMeasured 8.04594 -13.2445 -0.586255 0.218238 0.0956266 0.136639 ExForceSensed -0.13677 -0.0417217 
2025/5/27 12:1:7 timeTick175 3500 Desired_Joint 0.720094 0.180024 Plan_Joint 0.362589 0.161598 Gen_Joint -0.08 0.68 -0.32 0.02 0.23 -0.24 1.18 0.42 ActCable_Force 36.63 18.96 66.81 SCorCableForce 108.83 43.47 55.25 71.85 14.16 79.97 BCorCableForce 97.7 41.39 51.61 104.13 80.24 33.69 36.53 79.7 77.57 39.6 37.02 89.01 ExForceMeasured 6.26085 -18.4146 0.184578 0.213384 0.104405 0.223133 ExForceSensed -0.137742 -0.0579769 
2025/5/27 12:1:7 timeTick176 3520 Desired_Joint 0.738281 0.18457 Plan_Joint 0.372432 0.164049 Gen_Joint -0.08 0.68 -0.32 0.02 0.23 -0.24 1.18 0.42 ActCable_Force 36.63 18.96 66.81 SCorCableForce 108.83 43.47 55.25 71.85 14.16 79.97 BCorCableForce 97.7 41.39 51.61 104.13 80.24 33.69 36.53 79.7 77.57 39.6 37.02 89.01 ExForceMeasured 7.2782 -16.3576 0.601928 0.218444 0.112725 0.335602 ExForceSensed -0.134539 -0.0671731 
2025/5/27 12:1:7 timeTick177 3540 Desired_Joint 0.756656 0.189164 Plan_Joint 0.382342 0.166471 Gen_Joint -0.08 0.68 -0.32 0.02 0.25 -0.19 1.23 0.44 ActCable_Force 36.68 18.87 67.06 SCorCableForce 108.03 43.81 53.66 70.43 13.61 79.91 BCorCableForce 97.43 41.36 51.18 104.42 80.09 33.58 36.86 78.38 78.23 39.92 37.2 88.81 ExForceMeasured 10.1602 -15.2997 -0.580357 0.203057 0.0675626 0.277281 ExForceSensed -0.126549 -0.0827586 
2025/5/27 12:1:7 timeTick178 3560 Desired_Joint 0.775217 0.193804 Plan_Joint 0.392623 0.168986 Gen_Joint -0.08 0.68 -0.32 0.02 0.25 -0.19 1.23 0.44 ActCable_Force 36.68 18.87 67.06 SCorCableForce 108.03 43.81 53.66 70.43 13.61 79.91 BCorCableForce 97.43 41.36 51.18 104.42 80.09 33.58 36.86 78.38 78.23 39.92 37.2 88.81 ExForceMeasured 11.9937 -18.3868 0.199577 0.213454 0.086316 0.1911 ExForceSensed -0.115813 -0.136091 
2025/5/27 12:1:7 timeTick179 3580 Desired_Joint 0.793962 0.198491 Plan_Joint 0.402799 0.171375 Gen_Joint -0.06 0.71 -0.28 0.03 0.25 -0.19 1.23 0.44 ActCable_Force 36.29 18.51 66.92 SCorCableForce 108.42 44.08 54.7 71.79 13.59 79.93 BCorCableForce 97.91 41.9 51.78 104.12 80.28 34.03 36.63 79.5 77.71 39.08 36.56 89.01 ExForceMeasured 9.68257 -20.4544 -0.627079 0.203146 0.0862338 0.221391 ExForceSensed -0.10819 -0.139018 
2025/5/27 12:1:7 timeTick180 3600 Desired_Joint 0.81289 0.203223 Plan_Joint 0.413353 0.173858 Gen_Joint -0.06 0.71 -0.28 0.03 0.25 -0.19 1.23 0.44 ActCable_Force 36.29 18.51 66.92 SCorCableForce 108.42 44.08 54.7 71.79 13.59 79.93 BCorCableForce 97.91 41.9 51.78 104.12 80.28 34.03 36.63 79.5 77.71 39.08 36.56 89.01 ExForceMeasured 7.96926 -17.3808 -0.598932 0.218482 0.0953186 0.222096 ExForceSensed -0.101148 -0.137732 
2025/5/27 12:1:7 timeTick181 3620 Desired_Joint 0.832 0.208 Plan_Joint 0.424288 0.176437 Gen_Joint -0.06 0.71 -0.28 0.03 0.25 -0.19 1.23 0.44 ActCable_Force 36.31 18.87 66.97 SCorCableForce 108.99 43.61 54.46 72.01 14.18 79.86 BCorCableForce 98.03 41.64 51.11 104.79 80.8 34.03 37.12 79.5 77.69 38.92 36.59 89.22 ExForceMeasured 6.8609 -17.3954 0.219848 0.22895 0.0955765 0.194136 ExForceSensed -0.106567 -0.122884 
2025/5/27 12:1:7 timeTick182 3640 Desired_Joint 0.85129 0.212822 Plan_Joint 0.43539 0.179052 Gen_Joint -0.06 0.71 -0.28 0.03 0.26 -0.15 1.26 0.45 ActCable_Force 36.31 18.87 66.97 SCorCableForce 108.99 43.61 54.46 72.01 14.18 79.86 BCorCableForce 98.03 41.64 51.11 104.79 80.8 34.03 37.12 79.5 77.69 38.92 36.59 89.22 ExForceMeasured 7.35128 -16.3326 0.182122 0.197798 0.0949482 0.250729 ExForceSensed -0.113041 -0.106878 
2025/5/27 12:1:7 timeTick183 3660 Desired_Joint 0.870758 0.21769 Plan_Joint 0.44688 0.181764 Gen_Joint -0.06 0.71 -0.28 0.03 0.26 -0.15 1.26 0.45 ActCable_Force 36.09 18.82 66.99 SCorCableForce 109.31 43.14 55.02 72.37 14.54 79.82 BCorCableForce 97.87 41.25 50.76 103.95 80.76 33.6 37.51 79.62 78.07 39.24 36.99 89.6 ExForceMeasured 7.87113 -17.3586 -1.44603 0.192412 0.103696 0.307697 ExForceSensed -0.113041 -0.106878 
2025/5/27 12:1:7 timeTick184 3680 Desired_Joint 0.890403 0.222601 Plan_Joint 0.457983 0.184515 Gen_Joint -0.06 0.77 -0.23 0.04 0.26 -0.15 1.26 0.45 ActCable_Force 36.09 18.82 66.99 SCorCableForce 109.31 43.14 55.02 72.37 14.54 79.82 BCorCableForce 97.87 41.25 50.76 103.95 80.76 33.6 37.51 79.62 78.07 39.24 36.99 89.6 ExForceMeasured 2.1235 -15.3302 0.175599 0.197685 0.112653 0.339057 ExForceSensed -0.123071 -0.0595728 
2025/5/27 12:1:7 timeTick185 3700 Desired_Joint 0.910224 0.227556 Plan_Joint 0.469483 0.187364 Gen_Joint -0.06 0.77 -0.23 0.04 0.26 -0.15 1.26 0.45 ActCable_Force 36.54 19 67.4 SCorCableForce 109.1 43.2 53.78 71.46 14.29 80.09 BCorCableForce 97.99 41.34 51.15 104.43 80.91 33.58 36.87 78.95 77.98 38.94 36.77 89.58 ExForceMeasured 7.28078 -16.3571 -0.605425 0.218308 0.112747 0.335917 ExForceSensed -0.130805 -0.0391797 
2025/5/27 12:1:7 timeTick186 3720 Desired_Joint 0.930219 0.232555 Plan_Joint 0.481381 0.190313 Gen_Joint -0.06 0.77 -0.23 0.04 0.26 -0.15 1.26 0.45 ActCable_Force 36.54 19 67.4 SCorCableForce 109.1 43.2 53.78 71.46 14.29 80.09 BCorCableForce 97.99 41.34 51.15 104.43 80.91 33.58 36.87 78.95 77.98 38.94 36.77 89.58 ExForceMeasured 5.05055 -16.3606 -1.00887 0.213177 0.104041 0.280737 ExForceSensed -0.132971 -0.0145797 
2025/5/27 12:1:8 timeTick187 3740 Desired_Joint 0.950386 0.237596 Plan_Joint 0.493303 0.193303 Gen_Joint -0.06 0.77 -0.23 0.04 0.27 -0.09 1.33 0.46 ActCable_Force 36.11 18.48 66.92 SCorCableForce 108.2 43.42 54.28 71.91 13.82 79.97 BCorCableForce 98.3 41.22 50.93 104.7 80.48 33.58 36.18 79.55 78.5 39.37 36.99 89.2 ExForceMeasured 5.7537 -15.2922 -2.27223 0.197132 0.131694 0.167363 ExForceSensed -0.12711 -0.0132318 
2025/5/27 12:1:8 timeTick188 3760 Desired_Joint 0.970724 0.242681 Plan_Joint 0.505631 0.196395 Gen_Joint -0.06 0.77 -0.23 0.04 0.27 -0.09 1.33 0.46 ActCable_Force 36.11 18.48 66.92 SCorCableForce 108.2 43.42 54.28 71.91 13.82 79.97 BCorCableForce 98.3 41.22 50.93 104.7 80.48 33.58 36.18 79.55 78.5 39.37 36.99 89.2 ExForceMeasured 5.65726 -15.3191 0.181393 0.213073 0.122231 0.251668 ExForceSensed -0.117681 -0.0479003 
2025/5/27 12:1:8 timeTick189 3780 Desired_Joint 0.991232 0.247808 Plan_Joint 0.51745 0.199249 Gen_Joint -0.04 0.84 -0.17 0.07 0.27 -0.09 1.33 0.46 ActCable_Force 36.38 18.96 67.56 SCorCableForce 108.72 43.15 52.98 70.73 13.93 79.48 BCorCableForce 98.06 41.03 50.63 105.19 80.76 33.89 36.27 77.92 78.39 38.97 36.9 89.31 ExForceMeasured 8.38364 -14.2635 0.160061 0.197376 0.130397 0.363447 ExForceSensed -0.108515 -0.0725095 
2025/5/27 12:1:8 timeTick190 3800 Desired_Joint 1.01191 0.252977 Plan_Joint 0.529681 0.202206 Gen_Joint -0.04 0.84 -0.17 0.07 0.27 -0.09 1.33 0.46 ActCable_Force 36.38 18.96 67.56 SCorCableForce 108.72 43.15 52.98 70.73 13.93 79.48 BCorCableForce 98.06 41.03 50.63 105.19 80.76 33.89 36.27 77.92 78.39 38.97 36.9 89.31 ExForceMeasured 6.13841 -14.2791 0.196029 0.197728 0.0945625 0.308018 ExForceSensed -0.0993414 -0.0965171 
2025/5/27 12:1:8 timeTick191 3820 Desired_Joint 1.03275 0.258188 Plan_Joint 0.542329 0.205268 Gen_Joint -0.04 0.84 -0.17 0.07 0.27 -0.09 1.33 0.46 ActCable_Force 35.91 19.19 67.49 SCorCableForce 109.49 42.94 54.53 72.43 14.47 78.52 BCorCableForce 98.18 40.97 50.33 105.81 81.09 34.1 35.97 79.28 78.57 38.99 36.79 89.44 ExForceMeasured 7.9639 -15.2712 -2.28253 0.181646 0.122135 0.222783 ExForceSensed -0.109349 -0.124678 
2025/5/27 12:1:8 timeTick192 3840 Desired_Joint 1.05376 0.263439 Plan_Joint 0.555016 0.208314 Gen_Joint -0.04 0.84 -0.17 0.07 0.29 -0.02 1.38 0.48 ActCable_Force 35.91 19.19 67.49 SCorCableForce 109.49 42.94 54.53 72.43 14.47 78.52 BCorCableForce 98.18 40.97 50.33 105.81 81.09 34.1 35.97 79.28 78.57 38.99 36.79 89.44 ExForceMeasured 6.86376 -17.3502 -1.47312 0.192222 0.122483 0.194995 ExForceSensed -0.12098 -0.153155 
2025/5/27 12:1:8 timeTick193 3860 Desired_Joint 1.07493 0.268732 Plan_Joint 0.568126 0.211466 Gen_Joint -0.04 0.84 -0.17 0.07 0.29 -0.02 1.38 0.48 ActCable_Force 36.04 19.59 67.76 SCorCableForce 109.19 42.21 53.57 71.55 15.27 78.25 BCorCableForce 98.76 41.12 50.46 104.95 81.27 34.13 36.65 77.84 78.66 38.97 36.77 89.97 ExForceMeasured 6.79779 -17.3786 -0.652916 0.218014 0.149347 0.279746 ExForceSensed -0.12098 -0.153155 
2025/5/27 12:1:8 timeTick194 3880 Desired_Joint 1.09626 0.274065 Plan_Joint 0.580644 0.214505 Gen_Joint -0.02 0.9 -0.08 0.08 0.29 -0.02 1.38 0.48 ActCable_Force 36.04 19.59 67.76 SCorCableForce 109.19 42.21 53.57 71.55 15.27 78.25 BCorCableForce 98.76 41.12 50.46 104.95 81.27 34.13 36.65 77.84 78.66 38.97 36.77 89.97 ExForceMeasured 5.63662 -13.2662 -0.577179 0.218312 0.0950344 0.251562 ExForceSensed -0.131249 -0.125571 
2025/5/27 12:1:8 timeTick195 3900 Desired_Joint 1.11775 0.279439 Plan_Joint 0.59359 0.217651 Gen_Joint -0.02 0.9 -0.08 0.08 0.29 -0.02 1.38 0.48 ActCable_Force 36.02 19.25 67.78 SCorCableForce 108.54 43.15 54.17 72.01 15.06 78.71 BCorCableForce 98.15 40.74 50.37 105.28 81.01 34.48 37.3 78.61 78.52 38.67 36.43 90.06 ExForceMeasured 5.66045 -17.3539 -0.681133 0.187081 0.131185 0.252328 ExForceSensed -0.138336 -0.0997659 
2025/5/27 12:1:8 timeTick196 3920 Desired_Joint 1.13941 0.284852 Plan_Joint 0.606969 0.220905 Gen_Joint -0.02 0.9 -0.08 0.08 0.29 -0.02 1.38 0.48 ActCable_Force 36.02 19.25 67.78 SCorCableForce 108.54 43.15 54.17 72.01 15.06 78.71 BCorCableForce 98.15 40.74 50.37 105.28 81.01 34.48 37.3 78.61 78.52 38.67 36.43 90.06 ExForceMeasured 6.16101 -14.2961 -0.597579 0.218208 0.112848 0.308093 ExForceSensed -0.139478 -0.0694081 
2025/5/27 12:1:8 timeTick197 3940 Desired_Joint 1.16122 0.290304 Plan_Joint 0.620384 0.224148 Gen_Joint -0.02 0.9 -0.08 0.08 0.31 0.04 1.46 0.5 ActCable_Force 35.73 18.87 67.38 SCorCableForce 107.63 43.69 54.4 72.49 14.47 78.8 BCorCableForce 98.21 40.86 50.03 105.75 80.42 34.31 37.3 79.29 78.82 39.01 36.79 89.76 ExForceMeasured 7.45593 -16.3465 -0.59804 0.218417 0.0956129 0.165628 ExForceSensed -0.126946 -0.0406014 
2025/5/27 12:1:8 timeTick198 3960 Desired_Joint 1.18318 0.295795 Plan_Joint 0.634237 0.2275 Gen_Joint -0.02 0.9 -0.08 0.08 0.31 0.04 1.46 0.5 ActCable_Force 35.73 18.87 67.38 SCorCableForce 107.63 43.69 54.4 72.49 14.47 78.8 BCorCableForce 98.21 40.86 50.03 105.75 80.42 34.31 37.3 79.29 78.82 39.01 36.79 89.76 ExForceMeasured 6.7849 -17.3645 -0.666263 0.202543 0.14017 0.279863 ExForceSensed -0.114987 -0.034688 
2025/5/27 12:1:8 timeTick199 3980 Desired_Joint 1.2053 0.301325 Plan_Joint 0.647692 0.230743 Gen_Joint 0 0.96 -0.02 0.09 0.31 0.04 1.46 0.5 ActCable_Force 35.82 19.25 67.6 SCorCableForce 108.29 43.9 52.83 70.98 14.68 78.23 BCorCableForce 98.72 40.77 50.75 105.01 80.79 34.42 36.47 77.59 78.86 39.06 36.77 89.67 ExForceMeasured 6.15559 -18.389 -1.06292 0.182167 0.103696 0.308856 ExForceSensed -0.110568 -0.0587905 
2025/5/27 12:1:8 timeTick200 4000 Desired_Joint 1.22758 0.306894 Plan_Joint 0.661593 0.234098 Gen_Joint 0 0.96 -0.02 0.09 0.31 0.04 1.46 0.5 ActCable_Force 35.82 19.25 67.6 SCorCableForce 108.29 43.9 52.83 70.98 14.68 78.23 BCorCableForce 98.72 40.77 50.75 105.01 80.79 34.42 36.47 77.59 78.86 39.06 36.77 89.67 ExForceMeasured 5.55519 -15.3047 -0.245798 0.192317 0.121588 0.337084 ExForceSensed -0.107323 -0.0850565 
2025/5/27 12:1:8 timeTick201 4020 Desired_Joint 1.25 0.3125 Plan_Joint 0.675941 0.237564 Gen_Joint 0 0.96 -0.02 0.09 0.31 0.04 1.46 0.5 ActCable_Force 35.48 19.48 67.42 SCorCableForce 109.4 43.41 53.98 72.18 15.31 77.1 BCorCableForce 98.24 40.88 49.96 106.05 80.67 34.39 36.81 78.02 78.61 38.85 36.68 89.56 ExForceMeasured 4.53112 -13.2357 -1.45137 0.192052 0.122199 0.224462 ExForceSensed -0.113791 -0.104395 
2025/5/27 12:1:8 timeTick202 4040 Desired_Joint 1.27257 0.318144 Plan_Joint 0.69038 0.241083 Gen_Joint 0 0.96 -0.02 0.09 0.32 0.11 1.5 0.51 ActCable_Force 35.48 19.48 67.42 SCorCableForce 109.4 43.41 53.98 72.18 15.31 77.1 BCorCableForce 98.24 40.88 49.96 106.05 80.67 34.39 36.81 78.02 78.61 38.85 36.68 89.56 ExForceMeasured 5.11604 -16.3065 -1.07448 0.166568 0.095108 0.196037 ExForceSensed -0.121108 -0.123089 
2025/5/27 12:1:8 timeTick203 4060 Desired_Joint 1.2953 0.323825 Plan_Joint 0.705272 0.244715 Gen_Joint 0 0.96 -0.02 0.09 0.32 0.11 1.5 0.51 ActCable_Force 35.39 19.57 67.49 SCorCableForce 109.05 42.7 52.81 70.89 15.85 76.96 BCorCableForce 98.43 40.94 50.06 104.89 81.03 34.72 36.53 76.93 78.91 39.19 36.88 90.01 ExForceMeasured 6.64719 -15.3094 -1.41261 0.19251 0.0852027 0.364924 ExForceSensed -0.121108 -0.123089 
2025/5/27 12:1:8 timeTick204 4080 Desired_Joint 1.31817 0.329542 Plan_Joint 0.719542 0.248341 Gen_Joint 0 1.05 0.04 0.11 0.32 0.11 1.5 0.51 ActCable_Force 35.39 19.57 67.49 SCorCableForce 109.05 42.7 52.81 70.89 15.85 76.96 BCorCableForce 98.43 40.94 50.06 104.89 81.03 34.72 36.53 76.93 78.91 39.19 36.88 90.01 ExForceMeasured 8.64905 -16.3143 0.171523 0.197731 0.0957315 0.108154 ExForceSensed -0.123828 -0.117699 
2025/5/27 12:1:8 timeTick205 4100 Desired_Joint 1.34118 0.335296 Plan_Joint 0.734272 0.252083 Gen_Joint 0 1.05 0.04 0.11 0.32 0.11 1.5 0.51 ActCable_Force 36 19.89 68.12 SCorCableForce 108.27 43.5 53.23 71.44 14.97 77.41 BCorCableForce 98.27 40.7 50.64 105.88 80.48 34.58 36.62 77.93 78.61 38.76 36.59 89.72 ExForceMeasured 7.25817 -16.3401 0.188183 0.197827 0.0944611 0.335842 ExForceSensed -0.122227 -0.105047 
2025/5/27 12:1:8 timeTick206 4120 Desired_Joint 1.36434 0.341086 Plan_Joint 0.749464 0.255939 Gen_Joint 0 1.05 0.04 0.11 0.32 0.11 1.5 0.51 ActCable_Force 36 19.89 68.12 SCorCableForce 108.27 43.5 53.23 71.44 14.97 77.41 BCorCableForce 98.27 40.7 50.64 105.88 80.48 34.58 36.62 77.93 78.61 38.76 36.59 89.72 ExForceMeasured 8.59674 -16.3379 -0.235134 0.223219 0.140725 0.193282 ExForceSensed -0.125736 -0.0955116 
2025/5/27 12:1:8 timeTick207 4140 Desired_Joint 1.38765 0.346911 Plan_Joint 0.764561 0.259832 Gen_Joint 0 1.05 0.04 0.11 0.33 0.2 1.6 0.53 ActCable_Force 35.88 19.37 68.03 SCorCableForce 107.84 43.88 54.07 72 15.18 78 BCorCableForce 98.91 40.82 49.67 106.49 80.67 35 36.45 78.77 79 38.94 36.63 90.19 ExForceMeasured 7.9677 -15.2941 0.565428 0.202703 0.122247 0.221852 ExForceSensed -0.126715 -0.0977178 
2025/5/27 12:1:8 timeTick208 4160 Desired_Joint 1.41109 0.352772 Plan_Joint 0.780126 0.263842 Gen_Joint 0 1.05 0.04 0.11 0.33 0.2 1.6 0.53 ActCable_Force 35.88 19.37 68.03 SCorCableForce 107.84 43.88 54.07 72 15.18 78 BCorCableForce 98.91 40.82 49.67 106.49 80.67 35 36.45 78.77 79 38.94 36.63 90.19 ExForceMeasured 4.43502 -17.3662 0.149868 0.182276 0.103672 0.309535 ExForceSensed -0.108274 -0.102313 
2025/5/27 12:1:8 timeTick209 4180 Desired_Joint 1.43467 0.358668 Plan_Joint 0.795044 0.26767 Gen_Joint 0.03 1.13 0.12 0.12 0.33 0.2 1.6 0.53 ActCable_Force 35.61 19.53 68.31 SCorCableForce 108.53 43.79 53.98 72.37 15.04 77.55 BCorCableForce 98.76 40.18 49.81 105.73 80.89 34.82 36.81 78.89 79.32 38.99 36.68 90.26 ExForceMeasured 6.74878 -15.2981 -0.230829 0.192448 0.103776 0.279559 ExForceSensed -0.10768 -0.126037 
2025/5/27 12:1:8 timeTick210 4200 Desired_Joint 1.45839 0.364598 Plan_Joint 0.810435 0.271617 Gen_Joint 0.03 1.13 0.12 0.12 0.33 0.2 1.6 0.53 ActCable_Force 35.61 19.53 68.31 SCorCableForce 108.53 43.79 53.98 72.37 15.04 77.55 BCorCableForce 98.76 40.18 49.81 105.73 80.89 34.82 36.81 78.89 79.32 38.99 36.68 90.26 ExForceMeasured 7.8456 -15.2621 -0.275508 0.161331 0.103341 0.307507 ExForceSensed -0.10866 -0.151464 
2025/5/27 12:1:8 timeTick211 4220 Desired_Joint 1.48225 0.370563 Plan_Joint 0.826301 0.275682 Gen_Joint 0.03 1.13 0.12 0.12 0.33 0.2 1.6 0.53 ActCable_Force 34.91 19.46 67.97 SCorCableForce 109.86 43 53.83 71.76 15.81 76.26 BCorCableForce 99.02 40.24 49.66 106.99 81.4 35.78 37.05 78.07 79.36 38.67 36.29 90.4 ExForceMeasured 4.50776 -13.2377 0.582449 0.187347 0.0949592 0.223893 ExForceSensed -0.106542 -0.156657 
2025/5/27 12:1:8 timeTick212 4240 Desired_Joint 1.50624 0.376561 Plan_Joint 0.842327 0.279747 Gen_Joint 0.03 1.13 0.12 0.12 0.35 0.26 1.64 0.55 ActCable_Force 34.91 19.46 67.97 SCorCableForce 109.86 43 53.83 71.76 15.81 76.26 BCorCableForce 99.02 40.24 49.66 106.99 81.4 35.78 37.05 78.07 79.36 38.67 36.29 90.4 ExForceMeasured 6.22785 -14.2348 0.124259 0.166421 0.112913 0.223264 ExForceSensed -0.104206 -0.160123 
2025/5/27 12:1:8 timeTick213 4260 Desired_Joint 1.53037 0.382592 Plan_Joint 0.858834 0.283932 Gen_Joint 0.03 1.13 0.12 0.12 0.35 0.26 1.64 0.55 ActCable_Force 34.86 19.87 68.31 SCorCableForce 109.95 41.69 53.86 71.76 16.4 75.49 BCorCableForce 99.56 40.77 49.9 106.7 81.37 35.18 35.79 77.56 79.72 38.99 36.61 90.62 ExForceMeasured 4.52494 -17.3476 -0.676496 0.171786 0.104092 0.224731 ExForceSensed -0.104206 -0.160123 
2025/5/27 12:1:8 timeTick214 4280 Desired_Joint 1.55463 0.388656 Plan_Joint 0.874507 0.287898 Gen_Joint 0.05 1.22 0.22 0.15 0.35 0.26 1.64 0.55 ActCable_Force 34.86 19.87 68.31 SCorCableForce 109.95 41.69 53.86 71.76 16.4 75.49 BCorCableForce 99.56 40.77 49.9 106.7 81.37 35.18 35.79 77.56 79.72 38.99 36.61 90.62 ExForceMeasured 7.34626 -16.303 -0.671035 0.171699 0.103813 0.251217 ExForceSensed -0.122475 -0.175175 
2025/5/27 12:1:8 timeTick215 4300 Desired_Joint 1.57901 0.394754 Plan_Joint 0.890666 0.291986 Gen_Joint 0.05 1.22 0.22 0.15 0.35 0.26 1.64 0.55 ActCable_Force 35.05 19.37 68.46 SCorCableForce 109.14 42.84 52.56 70.8 15.67 76.58 BCorCableForce 99.21 40 48.06 105.88 81.1 34.97 37.14 77.08 79.82 38.72 36.36 90.89 ExForceMeasured 9.06893 -15.276 -0.653749 0.187089 0.112902 0.249934 ExForceSensed -0.125083 -0.172491 
2025/5/27 12:1:8 timeTick216 4320 Desired_Joint 1.60353 0.400883 Plan_Joint 0.907314 0.296197 Gen_Joint 0.05 1.22 0.22 0.15 0.35 0.26 1.64 0.55 ActCable_Force 35.05 19.37 68.46 SCorCableForce 109.14 42.84 52.56 70.8 15.67 76.58 BCorCableForce 99.21 40 48.06 105.88 81.1 34.97 37.14 77.08 79.82 38.72 36.36 90.89 ExForceMeasured 8.46677 -16.3214 -0.23626 0.192476 0.103778 0.278566 ExForceSensed -0.118435 -0.164221 
2025/5/27 12:1:8 timeTick217 4340 Desired_Joint 1.62818 0.407044 Plan_Joint 0.924454 0.30053 Gen_Joint 0.05 1.22 0.22 0.15 0.35 0.26 1.64 0.55 ActCable_Force 35.25 19.14 68.19 SCorCableForce 108.48 43.69 54.43 72.52 15.11 77.16 BCorCableForce 99.84 40.27 48.64 107.12 80.49 34.49 36.32 79.17 79.95 38.76 36.34 90.67 ExForceMeasured 6.86376 -17.3502 -1.47312 0.192222 0.122483 0.194995 ExForceSensed -0.109556 -0.172128 
2025/5/27 12:1:8 timeTick218 4360 Desired_Joint 1.65295 0.413237 Plan_Joint 0.941489 0.304826 Gen_Joint 0.05 1.22 0.22 0.15 0.38 0.36 1.74 0.57 ActCable_Force 35.25 19.14 68.19 SCorCableForce 108.48 43.69 54.43 72.52 15.11 77.16 BCorCableForce 99.84 40.27 48.64 107.12 80.49 34.49 36.32 79.17 79.95 38.76 36.34 90.67 ExForceMeasured 6.86694 -17.3614 -0.652817 0.202682 0.12255 0.194687 ExForceSensed -0.0955953 -0.177774 
2025/5/27 12:1:8 timeTick219 4380 Desired_Joint 1.67784 0.41946 Plan_Joint 0.958102 0.308908 Gen_Joint 0.07 1.29 0.28 0.18 0.38 0.36 1.74 0.57 ActCable_Force 35.43 19.39 68.74 SCorCableForce 108.95 43.05 53.19 70.99 15.22 77.05 BCorCableForce 99.71 40.41 49.55 106.43 81.03 35.69 36.92 78.1 79.91 38.63 36.27 90.96 ExForceMeasured 9.57784 -16.2923 0.519856 0.171651 0.121517 0.306268 ExForceSensed -0.0757734 -0.17183 
2025/5/27 12:1:8 timeTick220 4400 Desired_Joint 1.70286 0.425715 Plan_Joint 0.975213 0.313114 Gen_Joint 0.07 1.29 0.28 0.18 0.38 0.36 1.74 0.57 ActCable_Force 35.43 19.39 68.74 SCorCableForce 108.95 43.05 53.19 70.99 15.22 77.05 BCorCableForce 99.71 40.41 49.55 106.43 81.03 35.69 36.92 78.1 79.91 38.63 36.27 90.96 ExForceMeasured 7.93186 -13.183 0.515247 0.156016 0.112737 0.222093 ExForceSensed -0.0553534 -0.165069 
2025/5/27 12:1:8 timeTick221 4420 Desired_Joint 1.728 0.432 Plan_Joint 0.992826 0.317445 Gen_Joint 0.07 1.29 0.28 0.18 0.38 0.36 1.74 0.57 ActCable_Force 35.29 20.05 68.96 SCorCableForce 109.5 42.43 54.22 72.25 15.7 76.33 BCorCableForce 99.9 40.25 49.25 107.36 81.79 35.63 36.59 79.29 79.7 38.38 35.97 91.03 ExForceMeasured 10.7775 -16.2518 -0.337839 0.145514 0.130678 0.249294 ExForceSensed -0.066182 -0.146695 
2025/5/27 12:1:8 timeTick222 4440 Desired_Joint 1.75326 0.438315 Plan_Joint 1.01056 0.321762 Gen_Joint 0.07 1.29 0.28 0.18 0.4 0.43 1.79 0.6 ActCable_Force 35.29 20.05 68.96 SCorCableForce 109.5 42.43 54.22 72.25 15.7 76.33 BCorCableForce 99.9 40.25 49.25 107.36 81.79 35.63 36.59 79.29 79.7 38.38 35.97 91.03 ExForceMeasured 8.37346 -16.2586 0.0387806 0.135096 0.148106 0.364274 ExForceSensed -0.0796351 -0.127307 
2025/5/27 12:1:8 timeTick223 4460 Desired_Joint 1.77864 0.444659 Plan_Joint 1.02881 0.326205 Gen_Joint 0.07 1.29 0.28 0.18 0.4 0.43 1.79 0.6 ActCable_Force 35.45 20.73 69.14 SCorCableForce 111.03 41.22 54.23 71.56 16.74 74.81 BCorCableForce 99.93 40.43 49.78 106.46 82.28 36.74 36.92 78.07 79.93 38.87 36.52 90.96 ExForceMeasured 5.72274 -15.265 0.115782 0.166464 0.113297 0.166968 ExForceSensed -0.0852223 -0.119299 
2025/5/27 12:1:8 timeTick224 4480 Desired_Joint 1.80413 0.451033 Plan_Joint 1.04608 0.330497 Gen_Joint 0.09 1.4 0.38 0.2 0.4 0.43 1.79 0.6 ActCable_Force 35.45 20.73 69.14 SCorCableForce 111.03 41.22 54.23 71.56 16.74 74.81 BCorCableForce 99.93 40.43 49.78 106.46 82.28 36.74 36.92 78.07 79.93 38.87 36.52 90.96 ExForceMeasured 5.61538 -15.2656 -0.678952 0.156201 0.0946353 0.252327 ExForceSensed -0.0852223 -0.119299 
2025/5/27 12:1:8 timeTick225 4500 Desired_Joint 1.82974 0.457436 Plan_Joint 1.06386 0.334915 Gen_Joint 0.09 1.4 0.38 0.2 0.4 0.43 1.79 0.6 ActCable_Force 35.09 20.07 68.99 SCorCableForce 110.7 42.07 53.57 71.77 16.31 75.28 BCorCableForce 99.87 40.34 49.37 106.38 82 35.9 35.91 78.23 79.88 38.72 36.34 91.21 ExForceMeasured 5.02245 -16.2882 -0.313824 0.14578 0.112551 0.2812 ExForceSensed -0.0931818 -0.111804 
2025/5/27 12:1:8 timeTick226 4520 Desired_Joint 1.85547 0.463867 Plan_Joint 1.08216 0.339462 Gen_Joint 0.09 1.4 0.38 0.2 0.4 0.43 1.79 0.6 ActCable_Force 35.09 20.07 68.99 SCorCableForce 110.7 42.07 53.57 71.77 16.31 75.28 BCorCableForce 99.87 40.34 49.37 106.38 82 35.9 35.91 78.23 79.88 38.72 36.34 91.21 ExForceMeasured 6.8575 -15.2903 1.35135 0.197533 0.131437 0.194072 ExForceSensed -0.0996472 -0.108811 
2025/5/27 12:1:8 timeTick227 4540 Desired_Joint 1.88131 0.470327 Plan_Joint 1.10042 0.344018 Gen_Joint 0.09 1.4 0.38 0.2 0.42 0.51 1.91 0.62 ActCable_Force 35.77 20.3 68.99 SCorCableForce 109.68 43.09 53.63 71.1 15.42 76.05 BCorCableForce 100.5 40.55 50.67 106.27 81.4 35.58 36.33 78.53 80.27 39.3 36.81 90.85 ExForceMeasured 6.67964 -17.3389 -1.91376 0.171327 0.139461 0.365586 ExForceSensed -0.0833366 -0.122241 
2025/5/27 12:1:8 timeTick228 4560 Desired_Joint 1.90725 0.476814 Plan_Joint 1.11919 0.348702 Gen_Joint 0.09 1.4 0.38 0.2 0.42 0.51 1.91 0.62 ActCable_Force 35.77 20.3 68.99 SCorCableForce 109.68 43.09 53.63 71.1 15.42 76.05 BCorCableForce 100.5 40.55 50.67 106.27 81.4 35.58 36.33 78.53 80.27 39.3 36.81 90.85 ExForceMeasured 5.06006 -16.2931 -1.54684 0.160778 0.157966 0.281523 ExForceSensed -0.0622344 -0.150238 
2025/5/27 12:1:8 timeTick229 4580 Desired_Joint 1.93331 0.483328 Plan_Joint 1.13742 0.353238 Gen_Joint 0.11 1.48 0.45 0.22 0.42 0.51 1.91 0.62 ActCable_Force 35.88 20.25 69.46 SCorCableForce 109.92 42.88 53.63 71.62 15.08 76.33 BCorCableForce 99.6 40.32 49.88 107.3 81.25 35.38 36.47 79.02 80.2 39.03 36.61 91.01 ExForceMeasured 9.68854 -16.2722 -1.13297 0.166002 0.149155 0.221717 ExForceSensed -0.0538059 -0.177546 
2025/5/27 12:1:8 timeTick230 4600 Desired_Joint 1.95948 0.489869 Plan_Joint 1.15617 0.357903 Gen_Joint 0.11 1.48 0.45 0.22 0.42 0.51 1.91 0.62 ActCable_Force 35.88 20.25 69.46 SCorCableForce 109.92 42.88 53.63 71.62 15.08 76.33 BCorCableForce 99.6 40.32 49.88 107.3 81.25 35.38 36.47 79.02 80.2 39.03 36.61 91.01 ExForceMeasured 6.73514 -17.3266 -0.686797 0.1563 0.0945338 0.28015 ExForceSensed -0.0469524 -0.204792 
2025/5/27 12:1:8 timeTick231 4620 Desired_Joint 1.98575 0.496438 Plan_Joint 1.17545 0.362699 Gen_Joint 0.11 1.48 0.45 0.22 0.42 0.51 1.91 0.62 ActCable_Force 35.88 20.98 69.57 SCorCableForce 110.97 41.76 52.81 70.41 15.72 75.06 BCorCableForce 100.32 40.7 49.36 106.87 82.18 35.81 36.33 77.75 79.86 38.87 36.36 90.92 ExForceMeasured 9.12952 -11.1144 -1.47472 0.160914 0.103967 0.164903 ExForceSensed -0.0517118 -0.209557 
2025/5/27 12:1:8 timeTick232 4640 Desired_Joint 2.01213 0.503032 Plan_Joint 1.19481 0.367487 Gen_Joint 0.11 1.48 0.45 0.22 0.44 0.59 1.97 0.65 ActCable_Force 35.88 20.98 69.57 SCorCableForce 110.97 41.76 52.81 70.41 15.72 75.06 BCorCableForce 100.32 40.7 49.36 106.87 82.18 35.81 36.33 77.75 79.86 38.87 36.36 90.92 ExForceMeasured 6.64584 -19.3805 0.484393 0.140934 0.103046 0.3653 ExForceSensed -0.0549737 -0.211191 
2025/5/27 12:1:8 timeTick233 4660 Desired_Joint 2.03861 0.509652 Plan_Joint 1.2147 0.372406 Gen_Joint 0.11 1.48 0.45 0.22 0.44 0.59 1.97 0.65 ActCable_Force 35.79 21.45 69.89 SCorCableForce 111.79 40.97 54.52 72.25 16.85 74.49 BCorCableForce 100.36 40.4 48.95 108.05 82.97 36.99 36.35 79.05 80.04 38.87 36.5 91.57 ExForceMeasured 6.74043 -15.288 1.36357 0.18226 0.103665 0.279239 ExForceSensed -0.0640221 -0.18129 
2025/5/27 12:1:8 timeTick234 4680 Desired_Joint 2.06519 0.516298 Plan_Joint 1.23364 0.377098 Gen_Joint 0.14 1.59 0.55 0.24 0.44 0.59 1.97 0.65 ActCable_Force 35.79 21.45 69.89 SCorCableForce 111.79 40.97 54.52 72.25 16.85 74.49 BCorCableForce 100.36 40.4 48.95 108.05 82.97 36.99 36.35 79.05 80.04 38.87 36.5 91.57 ExForceMeasured 5.12059 -18.334 -1.14956 0.135398 0.113061 0.196567 ExForceSensed -0.0640221 -0.18129 
2025/5/27 12:1:8 timeTick235 4700 Desired_Joint 2.09187 0.522969 Plan_Joint 1.25312 0.381924 Gen_Joint 0.14 1.59 0.55 0.24 0.44 0.59 1.97 0.65 ActCable_Force 35.7 20.86 69.82 SCorCableForce 111.04 41.78 53.19 71.07 16.06 75.03 BCorCableForce 100.24 40.28 48.95 107.15 83.06 36.41 36.66 78.41 80.09 38.6 36.13 91.55 ExForceMeasured 6.83959 -15.2466 0.484848 0.155963 0.131126 0.194676 ExForceSensed -0.0729319 -0.140255 
2025/5/27 12:1:8 timeTick236 4720 Desired_Joint 2.11866 0.529664 Plan_Joint 1.27313 0.386882 Gen_Joint 0.14 1.59 0.55 0.24 0.44 0.59 1.97 0.65 ActCable_Force 35.7 20.86 69.82 SCorCableForce 111.04 41.78 53.19 71.07 16.06 75.03 BCorCableForce 100.24 40.28 48.95 107.15 83.06 36.41 36.66 78.41 80.09 38.6 36.13 91.55 ExForceMeasured 6.82608 -13.1971 0.126674 0.166348 0.113017 0.194448 ExForceSensed -0.0759281 -0.104426 
2025/5/27 12:1:9 timeTick237 4740 Desired_Joint 2.14554 0.536384 Plan_Joint 1.29297 0.391835 Gen_Joint 0.14 1.59 0.55 0.24 0.47 0.7 2.1 0.66 ActCable_Force 36.45 21.25 70.14 SCorCableForce 110.29 42.57 54.9 72.82 15.56 75.53 BCorCableForce 100.71 40.35 48.4 107.9 82.05 35.76 36.62 80.54 80.34 38.99 36.47 91.33 ExForceMeasured 8.03861 -13.1707 -0.717674 0.155682 0.131354 0.137357 ExForceSensed -0.0695016 -0.0870184 
2025/5/27 12:1:9 timeTick238 4760 Desired_Joint 2.17251 0.543128 Plan_Joint 1.31335 0.396921 Gen_Joint 0.14 1.59 0.55 0.24 0.47 0.7 2.1 0.66 ActCable_Force 36.45 21.25 70.14 SCorCableForce 110.29 42.57 54.9 72.82 15.56 75.53 BCorCableForce 100.71 40.35 48.4 107.9 82.05 35.76 36.62 80.54 80.34 38.99 36.47 91.33 ExForceMeasured 7.34002 -16.2667 0.470609 0.140557 0.121655 0.251261 ExForceSensed -0.0562186 -0.0817822 
2025/5/27 12:1:9 timeTick239 4780 Desired_Joint 2.19958 0.549896 Plan_Joint 1.33276 0.401864 Gen_Joint 0.16 1.69 0.67 0.26 0.47 0.7 2.1 0.66 ActCable_Force 35.41 19.89 69.71 SCorCableForce 110.46 42.34 52.9 70.5 15.31 76.33 BCorCableForce 100.66 40.31 50.27 107.12 82.2 36.42 36.71 78.46 81.11 39.17 36.84 91.78 ExForceMeasured 6.73616 -13.2158 0.953038 0.176838 0.112596 0.279252 ExForceSensed -0.0371625 -0.130771 
